; generated by PrusaSlicer 2.2.0+win64 on 2020-05-01 at 16:51:08 UTC

; 

; external perimeters extrusion width = 0.60mm
; perimeters extrusion width = 0.50mm
; infill extrusion width = 0.50mm
; solid infill extrusion width = 0.50mm
; top infill extrusion width = 0.45mm
; first layer extrusion width = 0.42mm

M73 P0 R66
M73 Q0 S66
M201 X1000 Y1000 Z1000 E5000 ; sets maximum accelerations, mm/sec^2
M203 X200 Y200 Z12 E120 ; sets maximum feedrates, mm/sec
M204 P1250 R1250 T1250 ; sets acceleration (P, T) and retract acceleration (R), mm/sec^2
M205 X8.00 Y8.00 Z0.40 E4.50 ; sets the jerk limits, mm/sec
M205 S0 T0 ; sets the minimum extruding and travel feed rate, mm/sec
M107
M862.3 P "MK3S" ; printer model check
M862.1 P0.4 ; nozzle diameter check
M115 U3.8.1 ; tell printer latest fw version
G90 ; use absolute coordinates
M83 ; extruder relative mode
M104 S215 ; set extruder temp
M140 S60 ; set bed temp
M190 S60 ; wait for bed temp
M109 S215 ; wait for extruder temp
G28 W ; home all without mesh bed level
G80 ; mesh bed leveling
G1 Y-3.0 F1000.0 ; go outside print area
G92 E0.0
G1 X60.0 E9.0 F1000.0 ; intro line
M73 Q0 S66
M73 P0 R65
G1 X100.0 E12.5 F1000.0 ; intro line
G92 E0.0
M221 S95
G21 ; set units to millimeters
G90 ; use absolute coordinates
M83 ; use relative distances for extrusion
M900 K30 ; Filament gcode
;BEFORE_LAYER_CHANGE
G92 E0.0
;0.2


G1 E-0.80000 F2100.00000
G1 Z0.600 F10800.000
;AFTER_LAYER_CHANGE
;0.2
G1 X108.199 Y91.883
G1 Z0.200
G1 E0.80000 F2100.00000
M204 S1000
G1 F1200.000
G1 X109.931 Y89.925 E0.08196
G1 X111.936 Y88.157 E0.08382
G1 X113.595 Y86.993 E0.06354
G1 X115.605 Y85.866 E0.07226
G1 X117.466 Y85.060 E0.06358
G1 X119.379 Y84.439 E0.06306
G1 X120.693 Y84.124 E0.04236
G1 X122.185 Y83.877 E0.04743
G1 X127.656 Y83.871 E0.17152
G1 X129.639 Y84.195 E0.06301
G1 X131.598 Y84.731 E0.06368
G1 X133.755 Y85.565 E0.07250
G1 X135.554 Y86.481 E0.06331
G1 X137.257 Y87.561 E0.06323
G1 X138.853 Y88.800 E0.06333
G1 X140.318 Y90.177 E0.06304
G1 X141.792 Y91.871 E0.07042
G1 X144.689 Y96.853 E0.18068
G1 X145.558 Y99.367 E0.08341
G1 X146.001 Y101.349 E0.06368
G1 X146.272 Y103.638 E0.07227
G1 X146.305 Y105.665 E0.06356
G1 X146.146 Y107.685 E0.06353
G1 X145.877 Y109.299 E0.05130
G1 X145.562 Y110.616 E0.04247
G1 X145.062 Y112.203 E0.05218
G1 X144.629 Y113.258 E0.03575
G1 X141.801 Y118.117 E0.17627
G1 X140.069 Y120.075 E0.08196
G1 X138.050 Y121.854 E0.08439
G1 X136.405 Y123.007 E0.06297
G1 X134.391 Y124.135 E0.07238
G1 X132.534 Y124.940 E0.06346
G1 X130.606 Y125.565 E0.06354
G1 X129.304 Y125.876 E0.04198
G1 X127.800 Y126.124 E0.04780
G1 X122.017 Y126.106 E0.18131
G1 X120.023 Y125.726 E0.06363
G1 X118.095 Y125.166 E0.06297
G1 X116.228 Y124.427 E0.06296
G1 X114.426 Y123.508 E0.06343
G1 X112.743 Y122.439 E0.06252
G1 X111.144 Y121.198 E0.06345
G1 X109.682 Y119.823 E0.06292
G1 X108.196 Y118.114 E0.07102
G1 X105.311 Y113.147 E0.18009
G1 X104.442 Y110.633 E0.08341
G1 X103.999 Y108.651 E0.06368
G1 X103.728 Y106.362 E0.07227
G1 X103.695 Y104.335 E0.06356
G1 X103.854 Y102.315 E0.06353
G1 X104.123 Y100.701 E0.05130
G1 X104.438 Y99.384 E0.04247
G1 X104.938 Y97.797 E0.05218
G1 X105.371 Y96.742 E0.03575
G1 X108.169 Y91.935 E0.17439
G1 F8640.000
G1 X109.931 Y89.925 E-0.61718
G1 X110.395 Y89.516 E-0.14282
G1 E-0.04000 F2100.00000
G1 Z0.800 F10800.000
G1 X117.657 Y99.313
G1 Z0.200
G1 E0.80000 F2100.00000
G1 F1200.000
G1 X117.939 Y98.967 E0.01401
G1 X118.334 Y98.533 E0.01837
G1 X118.963 Y97.942 E0.02707
G1 X119.310 Y97.660 E0.01401
G1 X119.783 Y97.316 E0.01837
G1 X120.526 Y96.861 E0.02729
G1 X121.311 Y96.476 E0.02744
G1 X122.130 Y96.167 E0.02743
G1 X122.967 Y95.938 E0.02722
G1 X123.405 Y95.851 E0.01401
G1 X123.985 Y95.768 E0.01837
G1 X124.854 Y95.713 E0.02729
G1 X125.729 Y95.741 E0.02744
G1 X126.590 Y95.850 E0.02722
G1 X127.028 Y95.937 E0.01401
G1 X127.596 Y96.083 E0.01836
G1 X128.419 Y96.364 E0.02729
G1 X129.217 Y96.725 E0.02744
G1 X129.977 Y97.158 E0.02743
G1 X130.687 Y97.657 E0.02722
G1 X131.033 Y97.939 E0.01401
G1 X131.467 Y98.334 E0.01837
G1 X132.058 Y98.963 E0.02707
G1 X132.340 Y99.310 E0.01401
G1 X132.684 Y99.783 E0.01837
G1 X133.139 Y100.526 E0.02729
G1 X133.524 Y101.311 E0.02744
G1 X133.833 Y102.130 E0.02744
G1 X134.062 Y102.967 E0.02722
G1 X134.149 Y103.405 E0.01401
G1 X134.232 Y103.985 E0.01837
G1 X134.287 Y104.854 E0.02729
G1 X134.259 Y105.729 E0.02744
G1 X134.150 Y106.590 E0.02722
G1 X134.063 Y107.028 E0.01401
G1 X133.917 Y107.596 E0.01837
G1 X133.636 Y108.419 E0.02729
G1 X133.275 Y109.217 E0.02744
G1 X132.842 Y109.977 E0.02743
G1 X132.343 Y110.687 E0.02722
G1 X132.061 Y111.033 E0.01401
G1 X131.666 Y111.467 E0.01837
G1 X131.037 Y112.058 E0.02707
G1 X130.690 Y112.340 E0.01401
G1 X130.217 Y112.684 E0.01837
G1 X129.474 Y113.139 E0.02729
G1 X128.689 Y113.524 E0.02744
G1 X127.870 Y113.833 E0.02744
G1 X127.033 Y114.062 E0.02722
G1 X126.594 Y114.149 E0.01401
G1 X126.015 Y114.232 E0.01837
G1 X125.146 Y114.287 E0.02729
G1 X124.271 Y114.259 E0.02744
G1 X123.410 Y114.150 E0.02722
G1 X122.972 Y114.063 E0.01401
G1 X122.404 Y113.917 E0.01837
G1 X121.581 Y113.636 E0.02729
G1 X120.783 Y113.275 E0.02744
G1 X120.023 Y112.842 E0.02744
G1 X119.313 Y112.343 E0.02722
G1 X118.967 Y112.061 E0.01401
G1 X118.533 Y111.666 E0.01837
G1 X117.942 Y111.037 E0.02707
G1 X117.660 Y110.690 E0.01401
G1 X117.316 Y110.217 E0.01837
G1 X116.861 Y109.474 E0.02729
G1 X116.476 Y108.689 E0.02744
G1 X116.167 Y107.870 E0.02744
G1 X115.938 Y107.033 E0.02722
G1 X115.851 Y106.594 E0.01401
G1 X115.768 Y106.015 E0.01837
G1 X115.713 Y105.146 E0.02729
G1 X115.741 Y104.271 E0.02744
G1 X115.850 Y103.410 E0.02722
G1 X115.937 Y102.972 E0.01401
G1 X116.083 Y102.404 E0.01837
G1 X116.364 Y101.581 E0.02729
G1 X116.725 Y100.783 E0.02744
G1 X117.158 Y100.023 E0.02744
G1 X117.623 Y99.362 E0.02534
G1 X117.931 Y99.579 F10800.000
G1 F1200.000
G1 X118.225 Y99.213 E0.01473
G1 X118.603 Y98.798 E0.01758
G1 X119.211 Y98.226 E0.02619
G1 X119.540 Y97.959 E0.01327
G1 X119.993 Y97.630 E0.01758
G1 X120.707 Y97.192 E0.02627
G1 X121.461 Y96.823 E0.02632
G1 X122.247 Y96.526 E0.02632
G1 X123.054 Y96.305 E0.02624
G1 X123.469 Y96.222 E0.01327
G1 X124.024 Y96.143 E0.01758
G1 X124.860 Y96.091 E0.02627
G1 X125.699 Y96.117 E0.02632
G1 X126.529 Y96.222 E0.02624
G1 X126.945 Y96.305 E0.01327
G1 X127.487 Y96.444 E0.01757
G1 X128.280 Y96.715 E0.02627
G1 X129.045 Y97.061 E0.02632
G1 X129.774 Y97.477 E0.02632
G1 X130.459 Y97.958 E0.02625
G1 X130.787 Y98.225 E0.01327
G1 X131.202 Y98.603 E0.01758
G1 X131.774 Y99.211 E0.02619
G1 X132.041 Y99.540 E0.01327
G1 X132.370 Y99.993 E0.01758
G1 X132.808 Y100.707 E0.02627
G1 X133.177 Y101.461 E0.02632
G1 X133.474 Y102.247 E0.02632
G1 X133.695 Y103.054 E0.02624
G1 X133.778 Y103.469 E0.01327
G1 X133.857 Y104.024 E0.01758
G1 X133.909 Y104.860 E0.02627
G1 X133.883 Y105.699 E0.02632
G1 X133.778 Y106.529 E0.02624
G1 X133.695 Y106.944 E0.01327
G1 X133.556 Y107.487 E0.01758
G1 X133.285 Y108.280 E0.02627
G1 X132.939 Y109.045 E0.02632
G1 X132.523 Y109.774 E0.02632
G1 X132.042 Y110.459 E0.02624
G1 X131.775 Y110.787 E0.01327
G1 X131.397 Y111.202 E0.01758
G1 X130.789 Y111.774 E0.02619
G1 X130.460 Y112.041 E0.01327
G1 X130.007 Y112.370 E0.01758
G1 X129.293 Y112.808 E0.02627
G1 X128.539 Y113.177 E0.02632
G1 X127.753 Y113.474 E0.02632
G1 X126.946 Y113.695 E0.02624
G1 X126.531 Y113.778 E0.01327
G1 X125.976 Y113.857 E0.01758
G1 X125.140 Y113.909 E0.02627
G1 X124.301 Y113.883 E0.02632
G1 X123.470 Y113.778 E0.02625
G1 X123.055 Y113.695 E0.01327
G1 X122.513 Y113.556 E0.01758
G1 X121.720 Y113.285 E0.02627
G1 X120.955 Y112.939 E0.02632
G1 X120.226 Y112.523 E0.02632
G1 X119.541 Y112.042 E0.02624
G1 X119.213 Y111.775 E0.01327
G1 X118.798 Y111.397 E0.01758
G1 X118.226 Y110.789 E0.02619
G1 X117.959 Y110.460 E0.01327
G1 X117.630 Y110.007 E0.01758
G1 X117.192 Y109.293 E0.02627
G1 X116.823 Y108.539 E0.02632
G1 X116.526 Y107.753 E0.02632
G1 X116.305 Y106.946 E0.02624
G1 X116.222 Y106.531 E0.01327
G1 X116.143 Y105.976 E0.01758
G1 X116.091 Y105.140 E0.02627
G1 X116.117 Y104.301 E0.02632
G1 X116.222 Y103.470 E0.02625
G1 X116.305 Y103.056 E0.01327
G1 X116.444 Y102.513 E0.01758
G1 X116.715 Y101.720 E0.02627
G1 X117.061 Y100.955 E0.02632
G1 X117.477 Y100.226 E0.02632
G1 X117.897 Y99.628 E0.02290
G1 X117.772 Y99.212 F10800.000
G1 F8640.000
G1 X118.225 Y99.213 E-0.12228
G1 X118.603 Y98.798 E-0.12943
G1 X119.211 Y98.226 E-0.19288
G1 X119.540 Y97.959 E-0.09770
G1 X119.993 Y97.630 E-0.12945
G1 X120.319 Y97.430 E-0.08825
G1 E-0.04000 F2100.00000
G1 Z0.800 F10800.000
G1 X134.136 Y89.602
G1 Z0.200
G1 E0.80000 F2100.00000
G1 F1200.000
G1 X130.057 Y96.668 E0.25581
G1 X130.952 Y97.325 E0.03482
G1 X131.425 Y97.716 E0.01925
G1 X131.758 Y98.023 E0.01420
G1 X132.184 Y98.463 E0.01920
G1 X132.582 Y98.929 E0.01920
G1 X132.858 Y99.291 E0.01428
G1 X133.117 Y99.666 E0.01428
G1 X133.438 Y100.190 E0.01928
G1 X133.653 Y100.588 E0.01421
G1 X133.914 Y101.142 E0.01919
G1 X134.139 Y101.712 E0.01921
G1 X134.283 Y102.142 E0.01421
G1 X134.445 Y102.735 E0.01928
G1 X134.541 Y103.180 E0.01428
G1 X134.616 Y103.630 E0.01431
G1 X134.748 Y104.787 E0.03651
G1 X142.903 Y104.787 E0.25570
G1 X142.898 Y101.991 E0.08768
G1 X143.071 Y103.294 E0.04123
G1 X143.131 Y104.147 E0.02682
G1 X143.149 Y104.710 E0.01766
G1 X143.131 Y105.857 E0.03597
G1 X143.071 Y106.710 E0.02680
G1 X143.009 Y107.273 E0.01776
G1 X142.898 Y108.006 E0.02326
G1 X142.903 Y105.213 E0.08759
G1 X134.748 Y105.213 E0.25570
G1 X134.616 Y106.370 E0.03651
G1 X134.541 Y106.820 E0.01430
G1 X134.445 Y107.265 E0.01429
G1 X134.283 Y107.858 E0.01928
G1 X134.139 Y108.288 E0.01421
G1 X133.914 Y108.857 E0.01920
G1 X133.653 Y109.412 E0.01920
G1 X133.438 Y109.810 E0.01421
G1 X133.117 Y110.334 E0.01926
G1 X132.858 Y110.709 E0.01429
G1 X132.582 Y111.071 E0.01428
G1 X132.184 Y111.537 E0.01920
G1 X131.758 Y111.977 E0.01920
G1 X131.425 Y112.284 E0.01420
G1 X130.952 Y112.675 E0.01925
G1 X130.057 Y113.332 E0.03482
G1 X134.136 Y120.398 E0.25581
G1 X136.543 Y119.002 E0.08725
G1 X135.667 Y119.686 E0.03485
G1 X135.206 Y120.010 E0.01766
G1 X134.238 Y120.625 E0.03597
G1 X133.492 Y121.043 E0.02682
G1 X132.988 Y121.299 E0.01773
G1 X132.206 Y121.660 E0.02698
G1 X131.359 Y121.996 E0.02859
G1 X133.767 Y120.611 E0.08711
G1 X129.691 Y113.552 E0.25559
G1 X128.574 Y114.031 E0.03812
G1 X128.148 Y114.188 E0.01423
G1 X127.561 Y114.369 E0.01927
G1 X127.121 Y114.478 E0.01420
G1 X126.517 Y114.593 E0.01928
G1 X126.066 Y114.654 E0.01428
G1 X125.612 Y114.693 E0.01428
G1 X125.000 Y114.713 E0.01920
G1 X124.388 Y114.693 E0.01920
G1 X123.934 Y114.654 E0.01428
G1 X123.483 Y114.593 E0.01428
G1 X122.879 Y114.478 E0.01928
G1 X122.439 Y114.369 E0.01422
G1 X121.852 Y114.188 E0.01926
G1 X121.426 Y114.031 E0.01423
G1 X120.309 Y113.552 E0.03812
G1 X116.233 Y120.611 E0.25559
G1 X118.647 Y121.999 E0.08731
G1 X118.054 Y121.770 E0.01993
G1 X117.269 Y121.423 E0.02689
G1 X116.762 Y121.174 E0.01774
G1 X116.005 Y120.766 E0.02696
G1 X115.518 Y120.478 E0.01773
G1 X114.799 Y120.014 E0.02682
G1 X113.873 Y119.341 E0.03590
G1 X113.460 Y119.004 E0.01672
G1 X115.864 Y120.398 E0.08714
G1 X119.943 Y113.332 E0.25581
G1 X119.048 Y112.675 E0.03482
G1 X118.575 Y112.284 E0.01925
G1 X118.242 Y111.977 E0.01420
G1 X117.816 Y111.537 E0.01920
G1 X117.418 Y111.071 E0.01920
G1 X117.142 Y110.709 E0.01428
G1 X116.883 Y110.334 E0.01428
G1 X116.562 Y109.810 E0.01928
G1 X116.347 Y109.412 E0.01421
G1 X116.086 Y108.858 E0.01919
G1 X115.861 Y108.288 E0.01921
G1 X115.717 Y107.858 E0.01421
G1 X115.555 Y107.265 E0.01928
G1 X115.459 Y106.820 E0.01428
G1 X115.384 Y106.370 E0.01431
G1 X115.252 Y105.213 E0.03651
G1 X107.097 Y105.213 E0.25570
G1 X107.102 Y108.009 E0.08768
G1 X106.929 Y106.706 E0.04123
G1 X106.869 Y105.853 E0.02682
G1 X106.851 Y105.290 E0.01766
G1 X106.869 Y104.143 E0.03597
G1 X106.929 Y103.290 E0.02680
G1 X106.991 Y102.727 E0.01776
G1 X107.102 Y101.994 E0.02326
G1 X107.097 Y104.787 E0.08759
G1 X115.252 Y104.787 E0.25570
G1 X115.384 Y103.630 E0.03651
G1 X115.459 Y103.180 E0.01430
G1 X115.555 Y102.735 E0.01429
G1 X115.717 Y102.142 E0.01928
G1 X115.861 Y101.712 E0.01421
G1 X116.086 Y101.143 E0.01920
G1 X116.347 Y100.588 E0.01920
G1 X116.562 Y100.190 E0.01421
G1 X116.883 Y99.666 E0.01926
G1 X117.142 Y99.291 E0.01429
G1 X117.418 Y98.929 E0.01428
G1 X117.816 Y98.463 E0.01920
G1 X118.242 Y98.023 E0.01920
G1 X118.575 Y97.716 E0.01420
G1 X119.048 Y97.325 E0.01925
G1 X119.943 Y96.668 E0.03482
G1 X115.864 Y89.602 E0.25581
G1 X113.457 Y90.998 E0.08725
G1 X114.333 Y90.314 E0.03485
G1 X114.794 Y89.990 E0.01766
G1 X115.762 Y89.375 E0.03597
G1 X116.508 Y88.957 E0.02682
G1 X117.012 Y88.701 E0.01773
G1 X117.793 Y88.341 E0.02696
G1 X118.641 Y88.004 E0.02861
G1 X116.233 Y89.389 E0.08711
G1 X120.309 Y96.448 E0.25559
G1 X121.426 Y95.969 E0.03812
G1 X121.852 Y95.812 E0.01423
G1 X122.439 Y95.631 E0.01927
G1 X122.879 Y95.522 E0.01420
G1 X123.483 Y95.407 E0.01928
G1 X123.934 Y95.346 E0.01428
G1 X124.388 Y95.307 E0.01428
G1 X125.000 Y95.287 E0.01920
G1 X125.612 Y95.307 E0.01920
G1 X126.066 Y95.346 E0.01428
G1 X126.517 Y95.407 E0.01428
G1 X127.121 Y95.522 E0.01928
G1 X127.561 Y95.631 E0.01422
G1 X128.148 Y95.812 E0.01926
G1 X128.574 Y95.969 E0.01423
G1 X129.691 Y96.448 E0.03812
G1 X133.767 Y89.389 E0.25559
G1 X131.353 Y88.001 E0.08731
G1 X131.946 Y88.230 E0.01993
G1 X132.731 Y88.577 E0.02689
G1 X133.238 Y88.826 E0.01774
G1 X133.995 Y89.234 E0.02696
G1 X134.482 Y89.522 E0.01773
G1 X135.201 Y89.986 E0.02682
G1 X136.127 Y90.659 E0.03590
G1 X136.540 Y90.996 E0.01672
G1 X134.188 Y89.632 E0.08526
G1 X134.274 Y90.118 F10800.000
G1 F1200.000
G1 X130.552 Y96.563 E0.23337
G1 X131.184 Y97.027 E0.02457
G1 X131.673 Y97.432 E0.01992
G1 X132.021 Y97.754 E0.01486
G1 X132.463 Y98.209 E0.01990
G1 X132.875 Y98.692 E0.01990
G1 X133.163 Y99.069 E0.01488
G1 X133.433 Y99.460 E0.01488
G1 X133.765 Y100.002 E0.01993
G1 X133.990 Y100.419 E0.01486
G1 X134.260 Y100.992 E0.01989
G1 X134.494 Y101.583 E0.01991
G1 X134.644 Y102.032 E0.01486
G1 X134.811 Y102.645 E0.01993
G1 X134.911 Y103.109 E0.01488
G1 X134.989 Y103.578 E0.01489
G1 X135.084 Y104.410 E0.02626
G1 X142.525 Y104.410 E0.23331
G1 X142.519 Y100.721 E0.11566
G1 X142.496 Y100.241 E0.01507
G1 X142.325 Y98.843 E0.04415
G1 X142.325 Y98.415 E0.01341
G1 X142.367 Y98.255 E0.00520
G1 X142.388 Y98.255 E0.00065
G1 X142.532 Y98.415 E0.00674
G1 X142.711 Y98.919 E0.01676
G1 X142.901 Y100.083 E0.03699
G1 X143.200 Y101.528 E0.04626
G1 X143.300 Y102.100 E0.01820
G1 X143.446 Y103.257 E0.03657
G1 X143.508 Y104.128 E0.02737
G1 X143.526 Y104.707 E0.01817
G1 X143.508 Y105.874 E0.03657
G1 X143.446 Y106.744 E0.02735
G1 X143.382 Y107.321 E0.01822
G1 X143.253 Y108.185 E0.02739
G1 X142.901 Y109.917 E0.05541
G1 X142.711 Y111.081 E0.03698
G1 X142.532 Y111.585 E0.01676
G1 X142.388 Y111.745 E0.00674
G1 X142.367 Y111.745 E0.00065
G1 X142.325 Y111.585 E0.00520
G1 X142.325 Y111.157 E0.01341
G1 X142.496 Y109.759 E0.04415
G1 X142.519 Y109.279 E0.01507
G1 X142.525 Y105.590 E0.11566
G1 X135.084 Y105.590 E0.23331
G1 X134.989 Y106.422 E0.02626
G1 X134.911 Y106.890 E0.01488
G1 X134.811 Y107.355 E0.01489
G1 X134.644 Y107.968 E0.01993
G1 X134.494 Y108.417 E0.01486
G1 X134.260 Y109.007 E0.01990
G1 X133.990 Y109.581 E0.01990
G1 X133.765 Y109.998 E0.01486
G1 X133.433 Y110.540 E0.01991
G1 X133.163 Y110.931 E0.01489
G1 X132.875 Y111.308 E0.01488
G1 X132.463 Y111.791 E0.01990
G1 X132.021 Y112.246 E0.01990
G1 X131.673 Y112.568 E0.01486
G1 X131.184 Y112.973 E0.01992
G1 X130.552 Y113.437 E0.02457
G1 X134.274 Y119.882 E0.23337
G1 X137.465 Y118.032 E0.11566
G1 X137.869 Y117.772 E0.01507
G1 X138.994 Y116.925 E0.04415
G1 X139.364 Y116.712 E0.01339
G1 X139.488 Y116.679 E0.00401
G1 X139.404 Y116.967 E0.00938
G1 X139.047 Y117.359 E0.01664
G1 X138.133 Y118.108 E0.03706
G1 X137.254 Y118.897 E0.03702
G1 X136.585 Y119.460 E0.02743
G1 X135.890 Y119.990 E0.02740
G1 X135.416 Y120.324 E0.01817
G1 X134.431 Y120.949 E0.03657
G1 X133.669 Y121.375 E0.02737
G1 X133.152 Y121.639 E0.01820
G1 X132.357 Y122.005 E0.02745
G1 X131.822 Y122.227 E0.01818
G1 X131.001 Y122.530 E0.02743
G1 X129.878 Y122.894 E0.03700
G1 X128.764 Y123.313 E0.03733
G1 X128.497 Y123.399 E0.00878
G1 X128.263 Y123.442 E0.00747
G1 X127.965 Y123.367 E0.00964
