; generated by PrusaSlicer 2.2.0+win64 on 2020-07-19 at 10:52:29 UTC

; 

; external perimeters extrusion width = 0.60mm
; perimeters extrusion width = 0.50mm
; infill extrusion width = 0.50mm
; solid infill extrusion width = 0.50mm
; top infill extrusion width = 0.45mm
; first layer extrusion width = 0.42mm

M73 P0 R62
M73 Q0 S63
M201 X1000 Y1000 Z200 E5000 ; sets maximum accelerations, mm/sec^2
M203 X200 Y200 Z12 E120 ; sets maximum feedrates, mm/sec
M204 P1250 R1250 T1250 ; sets acceleration (P, T) and retract acceleration (R), mm/sec^2
M205 X8.00 Y8.00 Z0.40 E4.50 ; sets the jerk limits, mm/sec
M205 S0 T0 ; sets the minimum extruding and travel feed rate, mm/sec
M107
M862.3 P "MK3S" ; printer model check
M862.1 P0.4 ; nozzle diameter check
M115 U3.9.0 ; tell printer latest fw version
G90 ; use absolute coordinates
M83 ; extruder relative mode
M104 S220 ; set extruder temp
M140 S70 ; set bed temp
M190 S70 ; wait for bed temp
M109 S220 ; wait for extruder temp
G28 W ; home all without mesh bed level
G80 ; mesh bed leveling
G1 Y-3.0 F1000.0 ; go outside print area
G92 E0.0
G1 X60.0 E9.0 F1000.0 ; intro line
M73 Q0 S62
M73 P0 R62
G1 X100.0 E12.5 F1000.0 ; intro line
G92 E0.0
M221 S95
G21 ; set units to millimeters
G90 ; use absolute coordinates
M83 ; use relative distances for extrusion
M900 K0.06 ; Filament gcode LA 1.5
M900 K30 ; Filament gcode LA 1.0
;BEFORE_LAYER_CHANGE
G92 E0.0
;0.3


G1 E-0.80000 F2100.00000
G1 Z0.600 F10800.000
;AFTER_LAYER_CHANGE
;0.3
G1 X108.361 Y92.147
G1 Z0.300
G1 E0.80000 F2100.00000
M204 S1000
G1 F1080.000
G1 X109.703 Y90.576 E0.09161
G1 X111.593 Y88.804 E0.11493
G1 X113.181 Y87.611 E0.08809
G1 X114.874 Y86.574 E0.08807
G1 X116.658 Y85.700 E0.08810
G1 X118.561 Y84.985 E0.09015
G1 X120.453 Y84.472 E0.08695
G1 X122.678 Y84.105 E0.10003
G1 X126.856 Y84.080 E0.18530
G1 X128.903 Y84.340 E0.09156
G1 X130.850 Y84.805 E0.08876
G1 X132.743 Y85.452 E0.08877
G1 X134.590 Y86.289 E0.08992
G1 X136.321 Y87.283 E0.08853
G1 X138.353 Y88.760 E0.11140
G1 X139.859 Y90.125 E0.09019
G1 X141.189 Y91.585 E0.08759
G1 X142.105 Y92.795 E0.06730
G1 X144.118 Y96.275 E0.17833
G1 X144.755 Y97.804 E0.07345
G1 X145.171 Y99.068 E0.05905
G1 X145.648 Y101.036 E0.08981
G1 X145.929 Y102.994 E0.08775
G1 X146.025 Y104.999 E0.08900
G1 X145.931 Y106.993 E0.08854
G1 X145.665 Y108.873 E0.08422
G1 X145.355 Y110.264 E0.06324
G1 X144.785 Y112.115 E0.08588
G1 X144.120 Y113.720 E0.07708
G1 X142.156 Y117.126 E0.17437
G1 X141.636 Y117.857 E0.03982
G1 X139.918 Y119.816 E0.11555
G1 X138.375 Y121.222 E0.09259
G1 X136.811 Y122.395 E0.08672
G1 X135.069 Y123.457 E0.09051
G1 X132.799 Y124.525 E0.11127
G1 X130.897 Y125.181 E0.08922
G1 X128.967 Y125.648 E0.08809
G1 X127.230 Y125.904 E0.07787
G1 X122.722 Y125.899 E0.19993
G1 X120.455 Y125.528 E0.10190
G1 X118.543 Y125.009 E0.08786
G1 X116.656 Y124.299 E0.08945
G1 X114.900 Y123.440 E0.08671
G1 X113.183 Y122.391 E0.08924
G1 X111.599 Y121.201 E0.08785
G1 X110.130 Y119.864 E0.08813
G1 X108.781 Y118.379 E0.08896
G1 X107.892 Y117.201 E0.06547
G1 X105.880 Y113.720 E0.17833
G1 X105.243 Y112.192 E0.07345
G1 X104.828 Y110.927 E0.05905
G1 X104.352 Y108.964 E0.08958
G1 X104.071 Y107.006 E0.08775
G1 X103.975 Y105.001 E0.08900
G1 X104.069 Y103.007 E0.08854
G1 X104.335 Y101.127 E0.08422
G1 X104.645 Y99.736 E0.06324
G1 X105.213 Y97.890 E0.08565
G1 X105.878 Y96.284 E0.07708
G1 X107.844 Y92.874 E0.17460
G1 X108.326 Y92.196 E0.03693
G1 F8640.000
G1 X109.703 Y90.576 E-0.49071
G1 X110.554 Y89.779 E-0.26929
G1 E-0.04000 F2100.00000
G1 Z0.900 F10800.000
G1 X139.350 Y96.714
G1 Z0.300
G1 E0.80000 F2100.00000
G1 F1080.000
G1 X140.648 Y96.747 E0.05759
G1 X140.966 Y96.864 E0.01505
G1 X141.352 Y97.120 E0.02056
G1 X141.628 Y97.447 E0.01896
G1 X141.994 Y98.291 E0.04081
G1 X142.380 Y99.368 E0.05074
G1 X142.700 Y100.470 E0.05090
G1 X142.949 Y101.590 E0.05090
G1 X143.126 Y102.713 E0.05041
G1 X143.233 Y103.844 E0.05041
G1 X143.270 Y104.992 E0.05091
G1 X143.234 Y106.141 E0.05099
G1 X143.186 Y106.749 E0.02705
G1 X143.047 Y107.848 E0.04916
G1 X142.829 Y108.988 E0.05148
G1 X142.544 Y110.100 E0.05091
G1 X142.197 Y111.169 E0.04984
G1 X141.981 Y111.740 E0.02711
G1 X141.658 Y112.504 E0.03680
G1 X141.361 Y112.872 E0.02094
G1 X140.935 Y113.151 E0.02260
G1 X140.596 Y113.263 E0.01581
G1 X139.348 Y113.284 E0.05539
G1 X139.956 Y114.379 E0.05557
G1 X140.028 Y114.735 E0.01612
G1 X140.005 Y115.192 E0.02028
G1 X139.877 Y115.587 E0.01842
G1 X139.085 Y116.636 E0.05831
G1 X138.309 Y117.517 E0.05207
G1 X137.522 Y118.304 E0.04935
G1 X137.077 Y118.709 E0.02670
G1 X136.210 Y119.427 E0.04992
G1 X135.716 Y119.797 E0.02738
G1 X134.792 Y120.424 E0.04951
G1 X133.814 Y121.003 E0.05040
G1 X132.792 Y121.525 E0.05092
G1 X131.728 Y121.986 E0.05142
G1 X130.648 Y122.375 E0.05092
G1 X129.541 Y122.697 E0.05116
G1 X128.447 Y122.942 E0.04972
G1 X127.839 Y123.048 E0.02738
G1 X126.782 Y123.177 E0.04720
G1 X126.361 Y123.103 E0.01896
G1 X125.939 Y122.897 E0.02085
G1 X125.600 Y122.585 E0.02044
G1 X124.998 Y121.539 E0.05350
G1 X124.431 Y122.546 E0.05125
G1 X124.100 Y122.869 E0.02054
G1 X123.634 Y123.104 E0.02317
G1 X123.163 Y123.178 E0.02114
G1 X122.160 Y123.048 E0.04485
G1 X121.572 Y122.946 E0.02646
G1 X120.471 Y122.700 E0.05004
G1 X119.890 Y122.541 E0.02669
G1 X118.814 Y122.191 E0.05020
G1 X117.768 Y121.778 E0.04991
G1 X116.698 Y121.275 E0.05242
G1 X115.702 Y120.727 E0.05041
G1 X114.755 Y120.127 E0.04972
G1 X114.244 Y119.768 E0.02771
G1 X113.356 Y119.079 E0.04986
G1 X112.499 Y118.324 E0.05065
G1 X111.700 Y117.526 E0.05009
G1 X110.909 Y116.629 E0.05308
G1 X110.123 Y115.587 E0.05787
G1 X109.995 Y115.191 E0.01845
G1 X109.969 Y114.773 E0.01857
G1 X110.047 Y114.373 E0.01811
G1 X110.659 Y113.271 E0.05589
G1 X109.473 Y113.273 E0.05260
G1 X109.037 Y113.138 E0.02024
G1 X108.644 Y112.877 E0.02090
G1 X108.363 Y112.539 E0.01952
G1 X107.811 Y111.191 E0.06462
G1 X107.459 Y110.109 E0.05043
G1 X107.300 Y109.529 E0.02670
G1 X107.052 Y108.415 E0.05060
G1 X106.875 Y107.298 E0.05017
G1 X106.767 Y106.167 E0.05040
G1 X106.730 Y105.009 E0.05140
G1 X106.766 Y103.861 E0.05091
G1 X106.870 Y102.740 E0.04997
G1 X107.059 Y101.548 E0.05353
G1 X107.297 Y100.485 E0.04830
G1 X107.461 Y99.883 E0.02769
G1 X107.811 Y98.810 E0.05004
G1 X108.342 Y97.499 E0.06276
G1 X108.643 Y97.126 E0.02126
G1 X109.065 Y96.849 E0.02239
G1 X109.404 Y96.737 E0.01581
G1 X110.652 Y96.716 E0.05539
G1 X110.044 Y95.621 E0.05557
G1 X109.972 Y95.265 E0.01612
G1 X109.995 Y94.802 E0.02053
G1 X110.157 Y94.353 E0.02120
G1 X110.911 Y93.369 E0.05498
G1 X111.699 Y92.475 E0.05286
G1 X112.472 Y91.702 E0.04849
G1 X112.910 Y91.302 E0.02631
G1 X113.790 Y90.573 E0.05068
G1 X114.284 Y90.203 E0.02740
G1 X115.218 Y89.570 E0.05003
G1 X116.206 Y88.986 E0.05091
G1 X117.219 Y88.470 E0.05041
G1 X118.293 Y88.006 E0.05190
G1 X119.373 Y87.618 E0.05091
G1 X120.470 Y87.300 E0.05066
G1 X121.553 Y87.058 E0.04922
G1 X122.136 Y86.956 E0.02626
G1 X123.340 Y86.828 E0.05368
G1 X123.685 Y86.913 E0.01575
G1 X124.057 Y87.101 E0.01851
G1 X124.322 Y87.320 E0.01525
G1 X125.004 Y88.434 E0.05790
G1 X125.567 Y87.457 E0.05001
G1 X125.895 Y87.134 E0.02042
G1 X126.415 Y86.879 E0.02568
G1 X126.728 Y86.824 E0.01409
G1 X127.031 Y86.845 E0.01351
G1 X127.885 Y86.959 E0.03820
G1 X128.978 Y87.168 E0.04935
G1 X130.111 Y87.459 E0.05189
G1 X131.192 Y87.811 E0.05041
G1 X132.248 Y88.229 E0.05041
G1 X133.302 Y88.725 E0.05164
G1 X134.298 Y89.273 E0.05041
G1 X135.258 Y89.881 E0.05041
G1 X136.199 Y90.565 E0.05162
G1 X136.674 Y90.946 E0.02699
G1 X137.513 Y91.687 E0.04965
G1 X138.320 Y92.495 E0.05065
G1 X139.078 Y93.355 E0.05083
G1 X139.848 Y94.361 E0.05620
G1 X140.005 Y94.807 E0.02099
G1 X140.031 Y95.227 E0.01863
G1 X139.953 Y95.627 E0.01811
G1 X139.379 Y96.662 E0.05247
G1 F8640.000
G1 X140.648 Y96.747 E-0.29361
G1 X140.966 Y96.864 E-0.07834
G1 X141.352 Y97.120 E-0.10705
G1 X141.628 Y97.447 E-0.09869
G1 X141.942 Y98.171 E-0.18231
G1 E-0.04000 F2100.00000
G1 Z0.900 F10800.000
G1 X135.099 Y95.168
G1 Z0.300
G1 E0.80000 F2100.00000
G1 F1080.000
G1 X134.908 Y95.404 E0.01345
G1 X135.627 Y96.205 E0.04777
G1 X136.146 Y96.872 E0.03748
G1 X136.421 Y97.264 E0.02122
G1 X136.874 Y97.979 E0.03756
G1 X137.280 Y98.716 E0.03731
G1 X137.490 Y99.145 E0.02121
G1 X137.820 Y99.907 E0.03682
G1 X137.986 Y100.347 E0.02084
G1 X138.264 Y101.203 E0.03994
G1 X138.564 Y101.156 E0.01347
G1 X138.564 Y98.068 E0.13695
G1 X138.594 Y97.926 E0.00645
G1 X138.751 Y97.618 E0.01534
G1 X139.183 Y97.206 E0.02644
G1 X139.554 Y97.076 E0.01748
G1 X140.558 Y97.092 E0.04452
G1 X140.793 Y97.175 E0.01105
G1 X141.103 Y97.375 E0.01640
G1 X141.314 Y97.615 E0.01414
G1 X141.661 Y98.417 E0.03875
G1 X142.040 Y99.472 E0.04975
G1 X142.354 Y100.553 E0.04991
G1 X142.599 Y101.651 E0.04991
G1 X142.773 Y102.752 E0.04942
G1 X142.879 Y103.872 E0.04992
G1 X142.914 Y104.997 E0.04992
G1 X142.879 Y106.125 E0.05005
G1 X142.833 Y106.708 E0.02594
G1 X142.696 Y107.787 E0.04824
G1 X142.481 Y108.916 E0.05098
G1 X142.201 Y110.006 E0.04992
G1 X141.863 Y111.047 E0.04855
G1 X141.652 Y111.605 E0.02645
G1 X141.340 Y112.343 E0.03556
G1 X141.140 Y112.592 E0.01416
G1 X140.792 Y112.825 E0.01855
G1 X140.559 Y112.908 E0.01097
G1 X139.558 Y112.925 E0.04439
G1 X139.413 Y112.894 E0.00660
G1 X139.157 Y112.774 E0.01254
G1 X138.748 Y112.378 E0.02524
G1 X138.594 Y112.075 E0.01510
G1 X138.564 Y111.932 E0.00646
G1 X138.564 Y108.830 E0.13760
G1 X138.264 Y108.783 E0.01350
G1 X137.974 Y109.686 E0.04208
G1 X137.666 Y110.464 E0.03711
G1 X137.473 Y110.892 E0.02084
G1 X137.092 Y111.640 E0.03720
G1 X136.867 Y112.033 E0.02009
G1 X136.418 Y112.741 E0.03719
G1 X135.915 Y113.436 E0.03805
G1 X135.627 Y113.796 E0.02045
G1 X134.925 Y114.588 E0.04695
G1 X135.116 Y114.822 E0.01342
G1 X137.787 Y113.280 E0.13679
G1 X138.162 Y113.208 E0.01694
G1 X138.265 Y113.217 E0.00460
G1 X138.758 Y113.349 E0.02264
G1 X139.044 Y113.536 E0.01515
G1 X139.141 Y113.645 E0.00649
G1 X139.630 Y114.524 E0.04461
G1 X139.674 Y114.774 E0.01126
G1 X139.652 Y115.149 E0.01667
G1 X139.574 Y115.398 E0.01156
G1 X138.805 Y116.417 E0.05661
G1 X138.053 Y117.270 E0.05043
G1 X137.273 Y118.050 E0.04892
G1 X136.841 Y118.443 E0.02596
G1 X135.986 Y119.150 E0.04918
G1 X135.512 Y119.505 E0.02627
G1 X134.606 Y120.121 E0.04860
G1 X133.648 Y120.689 E0.04941
G1 X132.635 Y121.206 E0.05042
G1 X131.602 Y121.653 E0.04992
G1 X130.533 Y122.038 E0.05042
G1 X129.447 Y122.354 E0.05017
G1 X128.373 Y122.594 E0.04880
G1 X127.791 Y122.696 E0.02622
G1 X126.768 Y122.821 E0.04569
G1 X126.456 Y122.760 E0.01413
G1 X126.125 Y122.592 E0.01645
G1 X125.865 Y122.346 E0.01587
G1 X125.394 Y121.512 E0.04250
G1 X125.342 Y121.179 E0.01492
G1 X125.482 Y120.603 E0.02631
G1 X125.549 Y120.469 E0.00664
G1 X125.776 Y120.215 E0.01514
G1 X128.460 Y118.665 E0.13745
G1 X128.349 Y118.381 E0.01353
G1 X127.587 Y118.550 E0.03465
G1 X126.743 Y118.684 E0.03789
G1 X126.293 Y118.734 E0.02009
G1 X125.456 Y118.787 E0.03721
G1 X125.003 Y118.795 E0.02008
G1 X124.156 Y118.769 E0.03758
G1 X123.679 Y118.731 E0.02122
G1 X122.835 Y118.624 E0.03777
G1 X121.655 Y118.388 E0.05336
G1 X121.549 Y118.670 E0.01339
G1 X124.224 Y120.215 E0.13702
G1 X124.451 Y120.469 E0.01514
G1 X124.518 Y120.603 E0.00664
G1 X124.658 Y121.179 E0.02631
G1 X124.606 Y121.512 E0.01492
G1 X124.135 Y122.346 E0.04250
G1 X123.875 Y122.592 E0.01587
G1 X123.546 Y122.759 E0.01637
G1 X123.181 Y122.822 E0.01643
G1 X122.210 Y122.696 E0.04344
G1 X121.637 Y122.596 E0.02576
G1 X120.553 Y122.354 E0.04930
G1 X119.988 Y122.199 E0.02595
G1 X118.940 Y121.858 E0.04891
G1 X117.904 Y121.449 E0.04941
G1 X116.865 Y120.961 E0.05092
G1 X115.878 Y120.418 E0.04992
G1 X114.949 Y119.829 E0.04880
G1 X114.459 Y119.485 E0.02658
G1 X113.579 Y118.801 E0.04942
G1 X112.739 Y118.061 E0.04967
G1 X111.955 Y117.279 E0.04910
G1 X111.189 Y116.409 E0.05143
G1 X110.426 Y115.398 E0.05617
G1 X110.348 Y115.149 E0.01156
G1 X110.326 Y114.777 E0.01655
G1 X110.389 Y114.474 E0.01372
G1 X110.858 Y113.646 E0.04223
G1 X110.958 Y113.534 E0.00663
G1 X111.190 Y113.373 E0.01253
G1 X111.737 Y113.217 E0.02522
G1 X112.078 Y113.236 E0.01519
G1 X112.185 Y113.268 E0.00492
G1 X114.901 Y114.832 E0.13904
G1 X115.092 Y114.596 E0.01345
G1 X114.373 Y113.795 E0.04777
G1 X113.854 Y113.128 E0.03748
G1 X113.579 Y112.736 E0.02122
G1 X113.126 Y112.021 E0.03756
G1 X112.720 Y111.284 E0.03731
G1 X112.510 Y110.855 E0.02121
G1 X112.180 Y110.093 E0.03682
G1 X112.014 Y109.653 E0.02084
G1 X111.736 Y108.797 E0.03994
G1 X111.436 Y108.844 E0.01347
G1 X111.436 Y111.932 E0.13695
G1 X111.406 Y112.074 E0.00645
G1 X111.249 Y112.382 E0.01534
G1 X110.817 Y112.794 E0.02644
G1 X110.503 Y112.914 E0.01492
G1 X109.546 Y112.924 E0.04247
G1 X109.206 Y112.824 E0.01572
G1 X108.895 Y112.623 E0.01643
G1 X108.681 Y112.376 E0.01452
G1 X108.142 Y111.062 E0.06296
G1 X107.801 Y110.012 E0.04899
G1 X107.646 Y109.447 E0.02596
G1 X107.402 Y108.354 E0.04968
G1 X107.227 Y107.248 E0.04967
G1 X107.122 Y106.139 E0.04942
G1 X107.086 Y105.014 E0.04992
G1 X107.121 Y103.878 E0.05042
G1 X107.224 Y102.779 E0.04897
G1 X107.408 Y101.620 E0.05204
G1 X107.643 Y100.567 E0.04787
G1 X107.803 Y99.981 E0.02695
G1 X108.143 Y98.938 E0.04865
G1 X108.661 Y97.656 E0.06132
G1 X108.864 Y97.406 E0.01429
G1 X109.208 Y97.175 E0.01836
G1 X109.441 Y97.092 E0.01097
G1 X110.442 Y97.075 E0.04439
G1 X110.587 Y97.106 E0.00660
G1 X110.843 Y97.226 E0.01254
G1 X111.252 Y97.622 E0.02524
G1 X111.406 Y97.925 E0.01510
G1 X111.436 Y98.068 E0.00646
G1 X111.436 Y101.170 E0.13760
G1 X111.736 Y101.217 E0.01350
G1 X112.026 Y100.314 E0.04208
G1 X112.334 Y99.536 E0.03711
G1 X112.527 Y99.108 E0.02084
G1 X112.908 Y98.360 E0.03720
G1 X113.133 Y97.967 E0.02009
G1 X113.582 Y97.259 E0.03719
G1 X114.085 Y96.564 E0.03805
G1 X114.373 Y96.204 E0.02045
G1 X115.075 Y95.412 E0.04695
G1 X114.884 Y95.178 E0.01342
G1 X112.213 Y96.720 E0.13680
G1 X111.838 Y96.792 E0.01694
G1 X111.735 Y96.783 E0.00460
G1 X111.242 Y96.651 E0.02264
G1 X110.956 Y96.464 E0.01515
G1 X110.859 Y96.355 E0.00649
G1 X110.370 Y95.476 E0.04461
G1 X110.326 Y95.226 E0.01126
G1 X110.348 Y94.853 E0.01659
G1 X110.479 Y94.505 E0.01649
G1 X111.188 Y93.592 E0.05127
G1 X111.954 Y92.722 E0.05140
G1 X112.720 Y91.956 E0.04806
G1 X113.147 Y91.568 E0.02558
G1 X114.014 Y90.850 E0.04992
G1 X114.487 Y90.495 E0.02628
G1 X115.403 Y89.873 E0.04910
G1 X116.372 Y89.300 E0.04992
G1 X117.375 Y88.789 E0.04992
G1 X118.418 Y88.338 E0.05041
G1 X119.478 Y87.958 E0.04992
G1 X120.564 Y87.644 E0.05017
G1 X121.627 Y87.406 E0.04830
G1 X122.193 Y87.307 E0.02551
G1 X123.291 Y87.182 E0.04902
G1 X123.544 Y87.240 E0.01152
G1 X123.877 Y87.408 E0.01653
G1 X124.069 Y87.571 E0.01115
G1 X124.584 Y88.431 E0.04446
G1 X124.631 Y88.572 E0.00659
G1 X124.654 Y88.853 E0.01253
G1 X124.517 Y89.402 E0.02508
G1 X124.452 Y89.531 E0.00639
G1 X124.224 Y89.785 E0.01516
G1 X121.540 Y91.335 E0.13745
G1 X121.651 Y91.619 E0.01353
G1 X122.413 Y91.450 E0.03465
G1 X123.257 Y91.316 E0.03789
G1 X123.707 Y91.266 E0.02009
G1 X124.544 Y91.213 E0.03721
G1 X125.016 Y91.205 E0.02091
G1 X125.844 Y91.231 E0.03676
G1 X126.321 Y91.269 E0.02121
G1 X127.165 Y91.376 E0.03777
G1 X128.345 Y91.612 E0.05336
G1 X128.451 Y91.330 E0.01339
G1 X125.779 Y89.787 E0.13688
G1 X125.670 Y89.690 E0.00646
G1 X125.483 Y89.404 E0.01516
G1 X125.352 Y88.912 E0.02259
G1 X125.378 Y88.531 E0.01694
G1 X125.414 Y88.434 E0.00460
G1 X125.864 Y87.655 E0.03988
G1 X126.082 Y87.438 E0.01366
G1 X126.503 Y87.224 E0.02094
G1 X126.764 Y87.179 E0.01177
G1 X127.823 Y87.309 E0.04732
G1 X128.905 Y87.517 E0.04888
G1 X130.006 Y87.799 E0.05041
G1 X131.076 Y88.148 E0.04992
G1 X132.112 Y88.558 E0.04942
G1 X133.135 Y89.039 E0.05016
G1 X134.122 Y89.582 E0.04991
G1 X135.062 Y90.179 E0.04942
G1 X135.980 Y90.845 E0.05031
G1 X136.442 Y91.216 E0.02625
G1 X137.265 Y91.943 E0.04873
G1 X138.057 Y92.735 E0.04966
G1 X138.799 Y93.576 E0.04977
G1 X139.548 Y94.554 E0.05464
G1 X139.652 Y94.853 E0.01402
G1 X139.674 Y95.223 E0.01646
G1 X139.611 Y95.526 E0.01372
G1 X139.142 Y96.354 E0.04223
G1 X139.042 Y96.466 E0.00663
G1 X138.810 Y96.627 E0.01253
G1 X138.263 Y96.783 E0.02522
G1 X137.922 Y96.764 E0.01519
G1 X137.815 Y96.732 E0.00492
G1 X135.151 Y95.198 E0.13638
G1 F8640.000
G1 X134.908 Y95.404 E-0.07351
G1 X135.627 Y96.205 E-0.24867
G1 X136.146 Y96.872 E-0.19513
