; generated by PrusaSlicer 2.2.0+win64 on 2020-05-11 at 00:33:59 UTC

; 

; external perimeters extrusion width = 0.60mm
; perimeters extrusion width = 0.50mm
; infill extrusion width = 0.50mm
; solid infill extrusion width = 0.50mm
; top infill extrusion width = 0.45mm
; first layer extrusion width = 0.42mm

M73 P0 R63
M73 Q0 S63
M201 X1000 Y1000 Z1000 E5000 ; sets maximum accelerations, mm/sec^2
M203 X200 Y200 Z12 E120 ; sets maximum feedrates, mm/sec
M204 P1250 R1250 T1250 ; sets acceleration (P, T) and retract acceleration (R), mm/sec^2
M205 X8.00 Y8.00 Z0.40 E4.50 ; sets the jerk limits, mm/sec
M205 S0 T0 ; sets the minimum extruding and travel feed rate, mm/sec
M107
M862.3 P "MK3S" ; printer model check
M862.1 P0.4 ; nozzle diameter check
M115 U3.8.1 ; tell printer latest fw version
G90 ; use absolute coordinates
M83 ; extruder relative mode
M104 S215 ; set extruder temp
M140 S70 ; set bed temp
M190 S70 ; wait for bed temp
M109 S215 ; wait for extruder temp
G28 W ; home all without mesh bed level
G80 ; mesh bed leveling
G1 Y-3.0 F1000.0 ; go outside print area
G92 E0.0
G1 X60.0 E9.0 F1000.0 ; intro line
M73 Q0 S63
M73 P0 R63
G1 X100.0 E12.5 F1000.0 ; intro line
G92 E0.0
M221 S95
G21 ; set units to millimeters
G90 ; use absolute coordinates
M83 ; use relative distances for extrusion
M900 K30 ; Filament gcode
;BEFORE_LAYER_CHANGE
G92 E0.0
;0.2


G1 E-0.80000 F2100.00000
G1 Z0.600 F10800.000
;AFTER_LAYER_CHANGE
;0.2
G1 X107.860 Y91.754
G1 Z0.200
G1 E0.80000 F2100.00000
M204 S1000
G1 F3000.000
G1 X109.438 Y89.931 E0.07560
G1 X111.185 Y88.315 E0.07462
G1 X112.825 Y87.083 E0.06431
G1 X114.594 Y86.002 E0.06499
G1 X116.680 Y85.000 E0.07255
G1 X118.623 Y84.298 E0.06480
G1 X120.610 Y83.788 E0.06430
G1 X122.629 Y83.469 E0.06411
G1 X126.929 Y83.446 E0.13481
G1 X129.026 Y83.716 E0.06629
G1 X131.055 Y84.202 E0.06544
G1 X133.007 Y84.872 E0.06472
G1 X135.119 Y85.847 E0.07292
G1 X136.895 Y86.896 E0.06467
G1 X138.571 Y88.116 E0.06501
G1 X140.296 Y89.661 E0.07261
G1 X141.685 Y91.185 E0.06464
G1 X142.625 Y92.425 E0.04881
G1 X144.689 Y95.997 E0.12932
G1 X145.253 Y97.317 E0.04501
G1 X145.704 Y98.629 E0.04352
G1 X146.217 Y100.635 E0.06493
G1 X146.562 Y102.923 E0.07254
G1 X146.662 Y104.994 E0.06501
G1 X146.564 Y107.060 E0.06485
G1 X146.285 Y109.020 E0.06207
G1 X145.898 Y110.701 E0.05407
G1 X145.375 Y112.355 E0.05441
G1 X144.691 Y113.998 E0.05580
G1 X142.665 Y117.510 E0.12710
G1 X142.118 Y118.275 E0.02949
G1 X140.536 Y120.095 E0.07561
G1 X138.571 Y121.884 E0.08332
G1 X136.895 Y123.104 E0.06499
G1 X135.108 Y124.159 E0.06507
G1 X133.002 Y125.129 E0.07270
G1 X131.052 Y125.799 E0.06466
G1 X129.088 Y126.272 E0.06333
G1 X127.304 Y126.538 E0.05656
G1 X122.643 Y126.533 E0.14614
G1 X120.605 Y126.211 E0.06469
G1 X118.599 Y125.694 E0.06496
G1 X116.425 Y124.892 E0.07266
G1 X114.571 Y123.986 E0.06470
G1 X112.823 Y122.915 E0.06426
G1 X111.171 Y121.673 E0.06483
G1 X109.658 Y120.292 E0.06422
G1 X108.116 Y118.571 E0.07244
G1 X107.356 Y117.544 E0.04008
G1 X105.294 Y113.971 E0.12932
G1 X104.743 Y112.674 E0.04420
G1 X104.287 Y111.342 E0.04415
G1 X103.729 Y109.096 E0.07254
G1 X103.438 Y107.072 E0.06414
G1 X103.338 Y105.003 E0.06492
G1 X103.436 Y102.940 E0.06478
G1 X103.715 Y100.980 E0.06207
G1 X104.101 Y99.304 E0.05390
G1 X104.623 Y97.649 E0.05441
G1 X105.294 Y96.029 E0.05499
G1 X107.332 Y92.495 E0.12791
G1 X107.825 Y91.803 E0.02664
G1 F8640.000
G1 X109.438 Y89.931 E-0.57053
G1 X110.041 Y89.374 E-0.18947
G1 E-0.04000 F2100.00000
G1 Z0.800 F10800.000
G1 X139.935 Y96.380
G1 Z0.200
G1 E0.80000 F2100.00000
G1 F3000.000
G1 X141.060 Y96.380 E0.03527
G1 X141.478 Y96.489 E0.01354
G1 X141.945 Y96.774 E0.01715
G1 X142.244 Y97.099 E0.01386
G1 X142.850 Y98.546 E0.04918
G1 X143.228 Y99.706 E0.03825
G1 X143.463 Y100.592 E0.02874
G1 X143.700 Y101.743 E0.03683
G1 X143.829 Y102.599 E0.02715
G1 X143.896 Y103.204 E0.01909
G1 X143.972 Y104.402 E0.03763
G1 X143.972 Y105.597 E0.03749
G1 X143.896 Y106.797 E0.03768
G1 X143.746 Y107.982 E0.03748
G1 X143.522 Y109.151 E0.03730
G1 X143.221 Y110.320 E0.03786
G1 X142.848 Y111.461 E0.03766
G1 X142.217 Y112.942 E0.05045
G1 X141.953 Y113.220 E0.01203
G1 X141.539 Y113.483 E0.01537
G1 X141.122 Y113.611 E0.01368
G1 X139.931 Y113.622 E0.03736
G1 X140.493 Y114.595 E0.03522
G1 X140.601 Y114.942 E0.01139
G1 X140.596 Y115.556 E0.01927
G1 X140.460 Y115.990 E0.01425
G1 X139.625 Y117.100 E0.04355
G1 X139.035 Y117.780 E0.02824
G1 X138.417 Y118.427 E0.02805
G1 X137.767 Y119.047 E0.02816
G1 X137.091 Y119.632 E0.02805
G1 X136.381 Y120.191 E0.02832
G1 X135.653 Y120.710 E0.02805
G1 X134.903 Y121.193 E0.02797
G1 X133.888 Y121.772 E0.03663
G1 X133.084 Y122.174 E0.02820
G1 X132.265 Y122.536 E0.02805
G1 X131.420 Y122.863 E0.02843
G1 X130.563 Y123.148 E0.02833
G1 X129.701 Y123.390 E0.02804
G1 X128.830 Y123.591 E0.02805
G1 X127.949 Y123.751 E0.02808
G1 X126.918 Y123.888 E0.03261
G1 X126.418 Y123.813 E0.01584
G1 X125.867 Y123.527 E0.01946
G1 X125.594 Y123.256 E0.01206
G1 X125.004 Y122.241 E0.03681
G1 X124.364 Y123.308 E0.03899
G1 X124.076 Y123.566 E0.01215
G1 X123.527 Y123.830 E0.01910
G1 X123.102 Y123.887 E0.01344
G1 X122.590 Y123.828 E0.01615
G1 X121.437 Y123.644 E0.03663
G1 X120.575 Y123.459 E0.02762
G1 X119.978 Y123.305 E0.01934
G1 X119.145 Y123.056 E0.02725
G1 X117.992 Y122.640 E0.03844
G1 X117.166 Y122.289 E0.02814
G1 X116.106 Y121.769 E0.03704
G1 X115.080 Y121.183 E0.03702
G1 X114.084 Y120.529 E0.03738
G1 X113.112 Y119.798 E0.03813
G1 X112.208 Y119.024 E0.03729
G1 X111.360 Y118.200 E0.03709
G1 X110.572 Y117.334 E0.03669
G1 X110.182 Y116.863 E0.01920
G1 X109.537 Y115.988 E0.03408
G1 X109.405 Y115.572 E0.01367
G1 X109.382 Y115.092 E0.01509
G1 X109.459 Y114.717 E0.01199
G1 X110.065 Y113.620 E0.03931
G1 X108.940 Y113.620 E0.03527
G1 X108.522 Y113.511 E0.01354
G1 X108.055 Y113.226 E0.01715
G1 X107.756 Y112.901 E0.01386
G1 X107.150 Y111.454 E0.04918
G1 X106.772 Y110.294 E0.03825
G1 X106.537 Y109.408 E0.02874
G1 X106.300 Y108.257 E0.03683
G1 X106.171 Y107.401 E0.02715
G1 X106.104 Y106.796 E0.01909
G1 X106.028 Y105.598 E0.03763
G1 X106.028 Y104.403 E0.03749
G1 X106.104 Y103.203 E0.03768
G1 X106.254 Y102.018 E0.03748
G1 X106.478 Y100.849 E0.03730
G1 X106.779 Y99.680 E0.03786
G1 X107.152 Y98.539 E0.03766
G1 X107.783 Y97.058 E0.05045
G1 X108.047 Y96.780 E0.01203
G1 X108.461 Y96.517 E0.01537
G1 X108.878 Y96.389 E0.01368
G1 X110.069 Y96.378 E0.03736
G1 X109.507 Y95.405 E0.03522
G1 X109.399 Y95.058 E0.01139
G1 X109.404 Y94.444 E0.01927
G1 X109.540 Y94.010 E0.01425
G1 X110.377 Y92.898 E0.04364
G1 X110.965 Y92.220 E0.02815
G1 X111.597 Y91.559 E0.02866
G1 X112.435 Y90.773 E0.03601
G1 X113.131 Y90.187 E0.02853
G1 X113.849 Y89.639 E0.02834
G1 X114.593 Y89.126 E0.02834
G1 X115.572 Y88.526 E0.03599
G1 X116.373 Y88.092 E0.02857
G1 X117.196 Y87.697 E0.02862
G1 X118.038 Y87.341 E0.02867
G1 X119.108 Y86.956 E0.03566
G1 X119.988 Y86.692 E0.02878
G1 X121.164 Y86.410 E0.03793
G1 X122.319 Y86.209 E0.03677
G1 X123.208 Y86.114 E0.02801
G1 X123.589 Y86.189 E0.01218
G1 X124.068 Y86.427 E0.01678
G1 X124.356 Y86.682 E0.01207
G1 X124.998 Y87.758 E0.03929
G1 X125.607 Y86.729 E0.03750
G1 X125.888 Y86.458 E0.01224
G1 X126.428 Y86.184 E0.01899
G1 X126.872 Y86.113 E0.01409
G1 X128.242 Y86.298 E0.04336
G1 X128.858 Y86.415 E0.01965
G1 X129.995 Y86.688 E0.03666
G1 X130.845 Y86.941 E0.02779
G1 X132.008 Y87.360 E0.03876
G1 X132.834 Y87.711 E0.02813
G1 X133.905 Y88.237 E0.03741
G1 X134.930 Y88.823 E0.03702
G1 X135.916 Y89.471 E0.03702
G1 X136.888 Y90.202 E0.03813
G1 X137.792 Y90.976 E0.03729
G1 X138.640 Y91.800 E0.03709
G1 X139.428 Y92.666 E0.03669
G1 X139.818 Y93.137 E0.01920
G1 X140.463 Y94.012 E0.03408
G1 X140.595 Y94.428 E0.01367
G1 X140.618 Y94.908 E0.01509
G1 X140.541 Y95.283 E0.01199
G1 X139.964 Y96.328 E0.03743
G1 F8640.000
G1 X141.060 Y96.380 E-0.25331
G1 X141.478 Y96.489 E-0.09969
G1 X141.945 Y96.774 E-0.12633
G1 X142.244 Y97.099 E-0.10206
G1 X142.543 Y97.813 E-0.17860
G1 E-0.04000 F2100.00000
G1 Z0.800 F10800.000
G1 X111.572 Y109.744
G1 Z0.200
G1 E0.80000 F2100.00000
G1 F3000.000
G1 X111.747 Y110.229 E0.01616
G1 X112.011 Y110.853 E0.02126
G1 X112.307 Y111.470 E0.02144
G1 X112.639 Y112.083 E0.02186
G1 X113.078 Y112.799 E0.02634
G1 X113.465 Y113.362 E0.02144
G1 X114.178 Y114.273 E0.03627
G1 X113.975 Y114.508 E0.00974
G1 X111.844 Y113.284 E0.07706
G1 X111.357 Y113.180 E0.01562
G1 X110.789 Y113.197 E0.01780
G1 X111.097 Y112.727 E0.01761
G1 X111.260 Y112.225 E0.01655
G1 X111.260 Y109.798 E0.07609
G1 X111.513 Y109.754 E0.00805
G1 F8640.000
G1 X111.747 Y110.229 E-0.12217
G1 X112.011 Y110.853 E-0.15653
G1 X112.307 Y111.470 E-0.15791
G1 X112.639 Y112.083 E-0.16098
G1 X113.006 Y112.683 E-0.16241
G1 E-0.04000 F2100.00000
G1 Z0.800 F10800.000
G1 X111.572 Y100.256
G1 Z0.200
G1 E0.80000 F2100.00000
G1 F3000.000
G1 X111.260 Y100.202 E0.00994
G1 X111.260 Y97.775 E0.07609
G1 X111.119 Y97.318 E0.01501
G1 X110.760 Y96.741 E0.02129
G1 X111.258 Y96.822 E0.01579
G1 X111.619 Y96.792 E0.01138
G1 X111.887 Y96.706 E0.00882
G1 X113.971 Y95.503 E0.07545
G1 X114.175 Y95.738 E0.00977
G1 X113.472 Y96.629 E0.03556
G1 X113.083 Y97.193 E0.02150
G1 X112.638 Y97.918 E0.02666
G1 X112.306 Y98.531 E0.02186
G1 X112.011 Y99.148 E0.02144
G1 X111.747 Y99.772 E0.02126
G1 X111.593 Y100.200 E0.01425
G1 F8640.000
G1 X111.260 Y100.202 E-0.07677
G1 X111.260 Y97.775 E-0.56035
G1 X111.119 Y97.318 E-0.11050
G1 X111.091 Y97.272 E-0.01238
G1 E-0.04000 F2100.00000
G1 Z0.800 F10800.000
G1 X119.928 Y91.625
G1 Z0.200
G1 E0.80000 F2100.00000
G1 F3000.000
G1 X120.151 Y92.011 E0.01397
G1 X120.720 Y91.807 E0.01896
G1 X121.350 Y91.619 E0.02063
G1 X122.188 Y91.418 E0.02699
G1 X122.837 Y91.300 E0.02068
G1 X123.499 Y91.212 E0.02094
G1 X124.326 Y91.147 E0.02601
G1 X125.003 Y91.130 E0.02124
G1 X125.660 Y91.146 E0.02060
G1 X126.316 Y91.193 E0.02063
G1 X127.159 Y91.299 E0.02665
G1 X127.812 Y91.418 E0.02081
G1 X128.650 Y91.619 E0.02700
G1 X129.280 Y91.807 E0.02063
G1 X129.849 Y92.011 E0.01896
G1 X130.071 Y91.627 E0.01391
G1 X125.830 Y89.178 E0.15356
G1 X125.564 Y88.872 E0.01271
G1 X125.518 Y88.773 E0.00343
G1 X125.374 Y88.219 E0.01796
G1 X125.370 Y88.101 E0.00371
G1 X125.446 Y87.742 E0.01150
G1 X125.916 Y86.946 E0.02900
G1 X126.122 Y86.755 E0.00879
G1 X126.565 Y86.536 E0.01549
G1 X126.896 Y86.490 E0.01046
G1 X128.185 Y86.670 E0.04083
G1 X128.783 Y86.784 E0.01909
G1 X129.902 Y87.053 E0.03609
G1 X130.732 Y87.301 E0.02715
G1 X131.866 Y87.709 E0.03777
G1 X132.672 Y88.051 E0.02748
G1 X133.723 Y88.567 E0.03670
G1 X134.727 Y89.141 E0.03628
G1 X135.704 Y89.783 E0.03664
G1 X136.648 Y90.493 E0.03702
G1 X137.533 Y91.251 E0.03655
G1 X138.365 Y92.058 E0.03635
G1 X139.146 Y92.916 E0.03637
G1 X139.524 Y93.373 E0.01861
G1 X140.139 Y94.210 E0.03255
G1 X140.220 Y94.472 E0.00860
G1 X140.243 Y94.867 E0.01240
G1 X140.195 Y95.130 E0.00838
G1 X139.729 Y95.974 E0.03025
G1 X139.662 Y96.056 E0.00332
G1 X139.345 Y96.279 E0.01213
G1 X138.811 Y96.438 E0.01749
G1 X138.688 Y96.445 E0.00386
G1 X138.315 Y96.373 E0.01190
G1 X134.047 Y93.920 E0.15436
G1 X133.820 Y94.313 E0.01423
G1 X134.331 Y94.739 E0.02087
G1 X134.805 Y95.191 E0.02053
G1 X135.256 Y95.663 E0.02048
G1 X135.687 Y96.159 E0.02058
G1 X136.227 Y96.856 E0.02764
G1 X136.604 Y97.402 E0.02081
G1 X137.037 Y98.110 E0.02602
G1 X137.359 Y98.706 E0.02123
G1 X137.647 Y99.306 E0.02087
G1 X137.903 Y99.913 E0.02067
G1 X138.185 Y100.697 E0.02612
G1 X138.381 Y101.350 E0.02137
G1 X138.578 Y102.169 E0.02640
G1 X138.667 Y102.705 E0.01706
G1 X139.117 Y102.705 E0.01410
G1 X139.117 Y97.808 E0.15355
G1 X139.249 Y97.425 E0.01270
G1 X139.312 Y97.335 E0.00345
G1 X139.695 Y96.953 E0.01697
G1 X140.018 Y96.789 E0.01136
G1 X140.169 Y96.758 E0.00484
G1 X141.033 Y96.758 E0.02710
G1 X141.349 Y96.844 E0.01026
G1 X141.724 Y97.080 E0.01389
G1 X141.910 Y97.277 E0.00850
G1 X142.500 Y98.685 E0.04784
G1 X142.865 Y99.808 E0.03703
G1 X143.094 Y100.674 E0.02809
G1 X143.330 Y101.814 E0.03650
G1 X143.456 Y102.651 E0.02655
G1 X143.521 Y103.241 E0.01860
G1 X143.595 Y104.408 E0.03665
G1 X143.595 Y105.591 E0.03711
G1 X143.520 Y106.767 E0.03693
G1 X143.372 Y107.929 E0.03673
G1 X143.153 Y109.074 E0.03656
G1 X142.860 Y110.209 E0.03674
G1 X142.497 Y111.324 E0.03678
G1 X141.917 Y112.712 E0.04717
G1 X141.726 Y112.919 E0.00882
G1 X141.396 Y113.134 E0.01234
G1 X141.088 Y113.234 E0.01016
G1 X140.168 Y113.243 E0.02886
G1 X139.822 Y113.130 E0.01141
G1 X139.693 Y113.045 E0.00484
G1 X139.314 Y112.667 E0.01677
G1 X139.230 Y112.538 E0.00484
G1 X139.117 Y112.193 E0.01136
G1 X139.117 Y107.295 E0.15359
G1 X138.667 Y107.295 E0.01410
G1 X138.578 Y107.830 E0.01703
G1 X138.381 Y108.649 E0.02640
G1 X138.186 Y109.302 E0.02137
G1 X137.904 Y110.086 E0.02612
G1 X137.647 Y110.693 E0.02067
G1 X137.360 Y111.294 E0.02087
G1 X137.038 Y111.889 E0.02123
G1 X136.599 Y112.605 E0.02634
G1 X136.219 Y113.154 E0.02092
G1 X135.812 Y113.688 E0.02105
G1 X135.273 Y114.319 E0.02602
G1 X134.816 Y114.798 E0.02076
G1 X134.341 Y115.252 E0.02060
G1 X133.820 Y115.687 E0.02128
G1 X134.046 Y116.078 E0.01417
G1 X138.285 Y113.630 E0.15349
G1 X138.434 Y113.581 E0.00492
G1 X138.731 Y113.557 E0.00935
G1 X139.373 Y113.729 E0.02083
G1 X139.618 Y113.899 E0.00935
G1 X139.723 Y114.016 E0.00492
G1 X140.154 Y114.763 E0.02706
G1 X140.231 Y115.019 E0.00837
G1 X140.220 Y115.522 E0.01578
G1 X140.138 Y115.790 E0.00879
G1 X139.336 Y116.858 E0.04187
G1 X138.753 Y117.529 E0.02789
G1 X138.147 Y118.163 E0.02749
G1 X137.517 Y118.765 E0.02732
G1 X136.854 Y119.339 E0.02749
G1 X136.159 Y119.887 E0.02776
G1 X135.445 Y120.396 E0.02749
G1 X134.712 Y120.868 E0.02734
G1 X133.715 Y121.437 E0.03599
G1 X132.927 Y121.831 E0.02762
G1 X132.125 Y122.186 E0.02749
G1 X131.296 Y122.507 E0.02786
G1 X130.456 Y122.786 E0.02777
G1 X129.612 Y123.024 E0.02749
G1 X128.758 Y123.221 E0.02749
G1 X127.895 Y123.378 E0.02751
G1 X126.894 Y123.511 E0.03166
G1 X126.559 Y123.462 E0.01061
G1 X126.106 Y123.234 E0.01591
G1 X125.906 Y123.042 E0.00867
G1 X125.439 Y122.239 E0.02913
G1 X125.406 Y122.132 E0.00352
G1 X125.379 Y121.784 E0.01094
G1 X125.498 Y121.271 E0.01650
G1 X125.544 Y121.166 E0.00358
G1 X125.815 Y120.844 E0.01321
G1 X130.072 Y118.375 E0.15431
G1 X129.849 Y117.989 E0.01397
G1 X129.280 Y118.193 E0.01896
G1 X128.650 Y118.381 E0.02063
G1 X127.812 Y118.582 E0.02699
G1 X127.163 Y118.700 E0.02068
G1 X126.501 Y118.788 E0.02094
G1 X125.674 Y118.853 E0.02601
G1 X124.997 Y118.870 E0.02124
G1 X124.340 Y118.854 E0.02060
G1 X123.684 Y118.807 E0.02063
G1 X122.841 Y118.701 E0.02665
G1 X122.188 Y118.582 E0.02081
G1 X121.350 Y118.381 E0.02700
G1 X120.720 Y118.193 E0.02063
G1 X120.151 Y117.989 E0.01896
G1 X119.929 Y118.373 E0.01391
G1 X124.170 Y120.821 E0.15355
G1 X124.436 Y121.127 E0.01270
G1 X124.482 Y121.227 E0.00345
G1 X124.622 Y121.750 E0.01697
G1 X124.602 Y122.111 E0.01136
G1 X124.553 Y122.259 E0.00489
G1 X124.086 Y123.052 E0.02884
G1 X123.881 Y123.243 E0.00877
G1 X123.439 Y123.462 E0.01547
G1 X123.119 Y123.510 E0.01014
G1 X122.646 Y123.455 E0.01496
G1 X121.511 Y123.274 E0.03602
G1 X120.658 Y123.091 E0.02734
G1 X120.082 Y122.943 E0.01865
G1 X119.268 Y122.699 E0.02665
G1 X118.134 Y122.291 E0.03778
G1 X117.328 Y121.949 E0.02748
G1 X116.277 Y121.433 E0.03670
G1 X115.273 Y120.859 E0.03628
G1 X114.296 Y120.217 E0.03664
G1 X113.352 Y119.507 E0.03702
G1 X112.467 Y118.749 E0.03655
G1 X111.635 Y117.942 E0.03635
G1 X110.854 Y117.084 E0.03637
G1 X110.476 Y116.627 E0.01861
G1 X109.861 Y115.790 E0.03255
G1 X109.780 Y115.528 E0.00860
G1 X109.757 Y115.133 E0.01240
G1 X109.805 Y114.870 E0.00838
G1 X110.271 Y114.026 E0.03025
G1 X110.338 Y113.944 E0.00332
G1 X110.655 Y113.721 E0.01213
G1 X111.189 Y113.562 E0.01749
G1 X111.312 Y113.555 E0.00386
G1 X111.685 Y113.627 E0.01190
G1 X115.953 Y116.080 E0.15436
G1 X116.180 Y115.687 E0.01423
G1 X115.669 Y115.261 E0.02087
G1 X115.195 Y114.809 E0.02053
G1 X114.744 Y114.337 E0.02048
G1 X114.313 Y113.841 E0.02058
G1 X113.773 Y113.144 E0.02764
G1 X113.396 Y112.598 E0.02081
G1 X112.963 Y111.890 E0.02602
G1 X112.641 Y111.294 E0.02123
G1 X112.353 Y110.694 E0.02087
G1 X112.097 Y110.087 E0.02067
G1 X111.815 Y109.303 E0.02612
G1 X111.619 Y108.650 E0.02137
G1 X111.422 Y107.831 E0.02640
G1 X111.333 Y107.295 E0.01706
G1 X110.883 Y107.295 E0.01410
