; generated by PrusaSlicer 2.2.0+win64 on 2020-05-12 at 11:05:54 UTC

; 

; external perimeters extrusion width = 0.60mm
; perimeters extrusion width = 0.50mm
; infill extrusion width = 0.50mm
; solid infill extrusion width = 0.50mm
; top infill extrusion width = 0.45mm
; first layer extrusion width = 0.42mm

M73 P0 R61
M73 Q0 S61
M201 X1000 Y1000 Z1000 E5000 ; sets maximum accelerations, mm/sec^2
M203 X200 Y200 Z12 E120 ; sets maximum feedrates, mm/sec
M204 P1250 R1250 T1250 ; sets acceleration (P, T) and retract acceleration (R), mm/sec^2
M205 X8.00 Y8.00 Z0.40 E4.50 ; sets the jerk limits, mm/sec
M205 S0 T0 ; sets the minimum extruding and travel feed rate, mm/sec
M107
M862.3 P "MK3S" ; printer model check
M862.1 P0.4 ; nozzle diameter check
M115 U3.8.1 ; tell printer latest fw version
G90 ; use absolute coordinates
M83 ; extruder relative mode
M104 S215 ; set extruder temp
M140 S70 ; set bed temp
M190 S70 ; wait for bed temp
M109 S215 ; wait for extruder temp
G28 W ; home all without mesh bed level
G80 ; mesh bed leveling
G1 Y-3.0 F1000.0 ; go outside print area
G92 E0.0
G1 X60.0 E9.0 F1000.0 ; intro line
M73 Q0 S61
M73 P0 R61
G1 X100.0 E12.5 F1000.0 ; intro line
G92 E0.0
M221 S95
G21 ; set units to millimeters
G90 ; use absolute coordinates
M83 ; use relative distances for extrusion
M900 K30 ; Filament gcode
;BEFORE_LAYER_CHANGE
G92 E0.0
;0.2


G1 E-0.80000 F2100.00000
G1 Z0.600 F10800.000
;AFTER_LAYER_CHANGE
;0.2
G1 X108.655 Y92.361
G1 Z0.200
G1 E0.80000 F2100.00000
M204 S1000
G1 F1080.000
G1 X110.161 Y90.623 E0.07210
G1 X111.848 Y89.065 E0.07200
G1 X113.409 Y87.896 E0.06115
G1 X115.312 Y86.750 E0.06964
G1 X117.090 Y85.912 E0.06165
G1 X118.930 Y85.250 E0.06132
G1 X120.811 Y84.767 E0.06088
G1 X122.739 Y84.463 E0.06118
G1 X126.928 Y84.446 E0.13136
G1 X128.859 Y84.702 E0.06108
G1 X130.783 Y85.164 E0.06202
G1 X132.883 Y85.901 E0.06980
G1 X134.664 Y86.738 E0.06170
G1 X136.364 Y87.744 E0.06192
G1 X138.150 Y89.063 E0.06963
G1 X139.610 Y90.390 E0.06186
G1 X140.935 Y91.847 E0.06176
G1 X141.781 Y92.962 E0.04389
G1 X143.821 Y96.496 E0.12793
G1 X144.333 Y97.710 E0.04130
G1 X144.832 Y99.205 E0.04944
G1 X145.296 Y101.128 E0.06201
G1 X145.571 Y103.071 E0.06152
G1 X145.662 Y105.025 E0.06136
G1 X145.540 Y107.239 E0.06950
G1 X145.297 Y108.866 E0.05158
G1 X144.927 Y110.461 E0.05134
G1 X144.435 Y112.015 E0.05110
G1 X143.798 Y113.547 E0.05201
G1 X141.809 Y116.994 E0.12479
G1 X141.328 Y117.661 E0.02577
G1 X139.633 Y119.587 E0.08048
G1 X137.922 Y121.123 E0.07207
G1 X136.343 Y122.270 E0.06120
G1 X134.644 Y123.273 E0.06185
G1 X132.627 Y124.202 E0.06963
G1 X130.764 Y124.842 E0.06177
G1 X128.894 Y125.292 E0.06031
G1 X127.216 Y125.542 E0.05317
G1 X122.732 Y125.537 E0.14060
G1 X120.785 Y125.227 E0.06182
G1 X118.641 Y124.659 E0.06953
G1 X116.794 Y123.963 E0.06189
G1 X115.045 Y123.105 E0.06108
G1 X113.386 Y122.089 E0.06099
G1 X111.809 Y120.903 E0.06186
G1 X110.181 Y119.398 E0.06953
G1 X108.875 Y117.919 E0.06186
G1 X108.204 Y117.015 E0.03530
G1 X106.166 Y113.480 E0.12793
G1 X105.666 Y112.286 E0.04059
G1 X105.160 Y110.769 E0.05015
G1 X104.704 Y108.872 E0.06116
G1 X104.428 Y106.924 E0.06169
G1 X104.338 Y104.974 E0.06121
G1 X104.460 Y102.761 E0.06948
G1 X104.703 Y101.134 E0.05158
G1 X105.072 Y99.543 E0.05120
G1 X105.564 Y97.990 E0.05110
G1 X106.191 Y96.473 E0.05145
G1 X108.189 Y93.010 E0.12536
G1 X108.620 Y92.410 E0.02317
G1 F8640.000
G1 X110.161 Y90.623 E-0.54475
G1 X110.845 Y89.991 E-0.21525
G1 E-0.04000 F2100.00000
G1 Z0.800 F10800.000
G1 X118.899 Y91.351
G1 Z0.200
G1 E0.80000 F2100.00000
G1 F1080.000
G1 X119.824 Y92.953 E0.05802
G1 X120.367 Y92.730 E0.01840
G1 X120.953 Y92.524 E0.01947
G1 X121.546 Y92.347 E0.01942
G1 X122.343 Y92.156 E0.02570
G1 X122.954 Y92.045 E0.01947
G1 X123.568 Y91.963 E0.01942
G1 X124.375 Y91.899 E0.02537
G1 X124.994 Y91.884 E0.01943
G1 X125.624 Y91.899 E0.01975
G1 X126.242 Y91.943 E0.01942
G1 X127.044 Y92.045 E0.02537
G1 X127.657 Y92.156 E0.01951
G1 X128.454 Y92.347 E0.02570
G1 X129.047 Y92.524 E0.01942
G1 X129.633 Y92.730 E0.01947
G1 X130.176 Y92.953 E0.01840
G1 X131.101 Y91.351 E0.05800
G1 X126.272 Y88.563 E0.17483
G1 X126.227 Y88.504 E0.00235
G1 X126.127 Y88.129 E0.01216
G1 X126.136 Y88.054 E0.00235
G1 X126.505 Y87.418 E0.02307
G1 X126.545 Y87.380 E0.00173
G1 X126.797 Y87.254 E0.00881
G1 X126.849 Y87.245 E0.00167
G1 X128.071 Y87.416 E0.03870
G1 X128.624 Y87.522 E0.01765
G1 X129.716 Y87.784 E0.03521
G1 X130.510 Y88.021 E0.02600
G1 X131.577 Y88.405 E0.03553
G1 X132.350 Y88.733 E0.02632
G1 X133.359 Y89.228 E0.03525
G1 X134.333 Y89.784 E0.03516
G1 X135.270 Y90.400 E0.03516
G1 X136.167 Y91.074 E0.03516
G1 X137.017 Y91.800 E0.03507
G1 X137.823 Y92.583 E0.03523
G1 X138.576 Y93.410 E0.03507
G1 X138.934 Y93.843 E0.01763
G1 X139.451 Y94.520 E0.02669
G1 X139.470 Y94.573 E0.00177
G1 X139.486 Y94.853 E0.00880
G1 X139.474 Y94.907 E0.00173
G1 X139.112 Y95.535 E0.02273
G1 X139.056 Y95.579 E0.00225
G1 X138.699 Y95.688 E0.01169
G1 X138.621 Y95.679 E0.00245
G1 X133.770 Y92.891 E0.17544
G1 X132.849 Y94.487 E0.05777
G1 X133.830 Y95.302 E0.04000
G1 X134.278 Y95.730 E0.01943
G1 X134.704 Y96.177 E0.01936
G1 X135.110 Y96.645 E0.01942
G1 X135.612 Y97.293 E0.02569
G1 X135.966 Y97.805 E0.01952
G1 X136.389 Y98.495 E0.02537
G1 X136.687 Y99.048 E0.01970
G1 X136.956 Y99.608 E0.01947
G1 X137.197 Y100.178 E0.01943
G1 X137.472 Y100.942 E0.02546
G1 X137.653 Y101.546 E0.01975
G1 X137.841 Y102.331 E0.02532
G1 X138.027 Y103.459 E0.03585
G1 X139.871 Y103.459 E0.05783
G1 X139.871 Y97.884 E0.17483
G1 X139.900 Y97.814 E0.00235
G1 X140.174 Y97.540 E0.01215
G1 X140.243 Y97.512 E0.00235
G1 X140.977 Y97.512 E0.02302
G1 X141.029 Y97.527 E0.00172
G1 X141.263 Y97.680 E0.00875
G1 X141.298 Y97.721 E0.00168
G1 X141.793 Y98.948 E0.04152
G1 X141.976 Y99.482 E0.01768
G1 X142.216 Y100.283 E0.02623
G1 X142.358 Y100.837 E0.01790
G1 X142.585 Y101.936 E0.03521
G1 X142.709 Y102.756 E0.02600
G1 X142.771 Y103.315 E0.01763
G1 X142.842 Y104.443 E0.03544
G1 X142.841 Y105.567 E0.03525
G1 X142.771 Y106.684 E0.03507
G1 X142.629 Y107.799 E0.03525
G1 X142.420 Y108.897 E0.03507
G1 X142.140 Y109.986 E0.03525
G1 X141.792 Y111.054 E0.03519
G1 X141.301 Y112.275 E0.04126
G1 X141.264 Y112.320 E0.00182
G1 X141.030 Y112.473 E0.00879
G1 X140.977 Y112.488 E0.00172
G1 X140.243 Y112.488 E0.02302
G1 X140.174 Y112.460 E0.00235
G1 X139.900 Y112.186 E0.01215
G1 X139.871 Y112.116 E0.00235
G1 X139.871 Y106.541 E0.17483
G1 X138.027 Y106.541 E0.05782
G1 X137.841 Y107.668 E0.03582
G1 X137.653 Y108.453 E0.02532
G1 X137.472 Y109.057 E0.01975
G1 X137.197 Y109.821 E0.02546
G1 X136.956 Y110.391 E0.01942
G1 X136.684 Y110.959 E0.01974
G1 X136.389 Y111.504 E0.01942
G1 X135.966 Y112.194 E0.02537
G1 X135.615 Y112.704 E0.01942
G1 X135.231 Y113.206 E0.01979
G1 X134.706 Y113.821 E0.02537
G1 X134.279 Y114.270 E0.01942
G1 X133.830 Y114.698 E0.01944
G1 X132.849 Y115.513 E0.04000
G1 X133.770 Y117.108 E0.05776
G1 X138.598 Y114.320 E0.17483
G1 X138.673 Y114.311 E0.00235
G1 X139.047 Y114.411 E0.01215
G1 X139.107 Y114.457 E0.00235
G1 X139.473 Y115.091 E0.02298
G1 X139.486 Y115.145 E0.00172
G1 X139.471 Y115.424 E0.00878
G1 X139.451 Y115.478 E0.00180
G1 X138.752 Y116.380 E0.03576
G1 X138.201 Y117.015 E0.02637
G1 X137.621 Y117.624 E0.02637
G1 X137.009 Y118.207 E0.02649
G1 X136.374 Y118.758 E0.02637
G1 X135.713 Y119.278 E0.02637
G1 X135.028 Y119.767 E0.02638
G1 X134.320 Y120.224 E0.02642
G1 X133.359 Y120.772 E0.03470
G1 X132.606 Y121.149 E0.02642
G1 X131.836 Y121.489 E0.02637
G1 X131.049 Y121.794 E0.02647
G1 X130.243 Y122.063 E0.02665
G1 X129.434 Y122.291 E0.02637
G1 X128.614 Y122.481 E0.02637
G1 X127.786 Y122.631 E0.02638
G1 X126.852 Y122.756 E0.02954
G1 X126.796 Y122.746 E0.00178
G1 X126.544 Y122.620 E0.00884
G1 X126.504 Y122.582 E0.00173
G1 X126.141 Y121.954 E0.02275
G1 X126.131 Y121.883 E0.00225
G1 X126.215 Y121.520 E0.01168
G1 X126.261 Y121.457 E0.00245
G1 X131.101 Y118.649 E0.17544
G1 X130.176 Y117.047 E0.05802
G1 X129.633 Y117.270 E0.01840
G1 X129.047 Y117.476 E0.01947
G1 X128.454 Y117.653 E0.01942
G1 X127.657 Y117.844 E0.02570
G1 X127.046 Y117.955 E0.01947
G1 X126.432 Y118.037 E0.01942
G1 X125.625 Y118.101 E0.02537
G1 X125.006 Y118.116 E0.01943
G1 X124.376 Y118.101 E0.01975
G1 X123.758 Y118.057 E0.01942
G1 X122.956 Y117.955 E0.02537
G1 X122.343 Y117.844 E0.01951
G1 X121.546 Y117.653 E0.02570
G1 X120.953 Y117.476 E0.01942
G1 X120.367 Y117.270 E0.01947
G1 X119.824 Y117.047 E0.01840
G1 X118.899 Y118.649 E0.05800
G1 X123.728 Y121.437 E0.17483
G1 X123.773 Y121.496 E0.00235
G1 X123.873 Y121.871 E0.01215
G1 X123.864 Y121.945 E0.00235
G1 X123.497 Y122.581 E0.02302
G1 X123.457 Y122.618 E0.00173
G1 X123.206 Y122.745 E0.00879
G1 X123.152 Y122.754 E0.00173
G1 X122.756 Y122.709 E0.01250
G1 X121.649 Y122.533 E0.03513
G1 X120.839 Y122.359 E0.02600
G1 X120.291 Y122.218 E0.01772
G1 X119.490 Y121.979 E0.02623
G1 X118.952 Y121.795 E0.01781
G1 X118.423 Y121.595 E0.01772
G1 X117.650 Y121.267 E0.02632
G1 X116.641 Y120.772 E0.03525
G1 X115.667 Y120.216 E0.03516
G1 X114.730 Y119.600 E0.03516
G1 X113.833 Y118.926 E0.03516
G1 X112.983 Y118.200 E0.03507
G1 X112.177 Y117.417 E0.03523
G1 X111.424 Y116.590 E0.03507
G1 X111.066 Y116.157 E0.01763
G1 X110.549 Y115.480 E0.02669
G1 X110.530 Y115.427 E0.00177
G1 X110.514 Y115.147 E0.00880
G1 X110.526 Y115.093 E0.00173
G1 X110.888 Y114.465 E0.02273
G1 X110.944 Y114.421 E0.00225
G1 X111.301 Y114.312 E0.01169
G1 X111.379 Y114.321 E0.00245
G1 X116.230 Y117.109 E0.17544
G1 X117.151 Y115.513 E0.05777
G1 X116.170 Y114.698 E0.04000
G1 X115.722 Y114.270 E0.01943
G1 X115.296 Y113.823 E0.01936
G1 X114.890 Y113.355 E0.01942
G1 X114.388 Y112.707 E0.02569
G1 X114.034 Y112.195 E0.01952
G1 X113.611 Y111.505 E0.02537
G1 X113.313 Y110.952 E0.01970
G1 X113.044 Y110.392 E0.01947
G1 X112.803 Y109.822 E0.01943
G1 X112.528 Y109.058 E0.02546
G1 X112.347 Y108.454 E0.01975
G1 X112.159 Y107.669 E0.02532
G1 X111.973 Y106.541 E0.03585
G1 X110.129 Y106.541 E0.05783
G1 X110.129 Y112.116 E0.17483
G1 X110.100 Y112.186 E0.00235
G1 X109.826 Y112.460 E0.01215
G1 X109.757 Y112.488 E0.00235
G1 X109.023 Y112.488 E0.02302
G1 X108.971 Y112.473 E0.00172
G1 X108.737 Y112.320 E0.00875
G1 X108.702 Y112.279 E0.00168
G1 X108.207 Y111.052 E0.04152
G1 X108.024 Y110.518 E0.01768
G1 X107.784 Y109.717 E0.02623
G1 X107.642 Y109.163 E0.01790
G1 X107.415 Y108.064 E0.03521
G1 X107.291 Y107.244 E0.02600
G1 X107.229 Y106.685 E0.01763
G1 X107.158 Y105.557 E0.03544
G1 X107.159 Y104.433 E0.03525
G1 X107.229 Y103.316 E0.03507
G1 X107.371 Y102.201 E0.03525
G1 X107.580 Y101.103 E0.03507
G1 X107.860 Y100.014 E0.03525
G1 X108.208 Y98.946 E0.03519
G1 X108.699 Y97.725 E0.04126
G1 X108.736 Y97.680 E0.00182
G1 X108.970 Y97.527 E0.00879
G1 X109.023 Y97.512 E0.00172
G1 X109.757 Y97.512 E0.02302
G1 X109.826 Y97.540 E0.00235
G1 X110.100 Y97.814 E0.01215
G1 X110.129 Y97.884 E0.00235
G1 X110.129 Y103.459 E0.17483
G1 X111.973 Y103.459 E0.05782
G1 X112.159 Y102.332 E0.03582
G1 X112.347 Y101.547 E0.02532
G1 X112.528 Y100.943 E0.01975
G1 X112.803 Y100.179 E0.02546
G1 X113.044 Y99.609 E0.01942
G1 X113.316 Y99.041 E0.01974
G1 X113.611 Y98.496 E0.01942
G1 X114.034 Y97.806 E0.02537
G1 X114.385 Y97.296 E0.01942
G1 X114.769 Y96.794 E0.01979
G1 X115.294 Y96.179 E0.02537
G1 X115.721 Y95.730 E0.01942
G1 X116.170 Y95.302 E0.01944
G1 X117.151 Y94.487 E0.04000
G1 X116.230 Y92.892 E0.05776
G1 X111.402 Y95.680 E0.17483
G1 X111.327 Y95.689 E0.00235
G1 X110.953 Y95.589 E0.01215
G1 X110.893 Y95.543 E0.00235
G1 X110.527 Y94.909 E0.02298
G1 X110.514 Y94.855 E0.00172
G1 X110.529 Y94.576 E0.00878
G1 X110.549 Y94.522 E0.00180
G1 X111.249 Y93.618 E0.03586
G1 X111.801 Y92.983 E0.02637
G1 X112.383 Y92.373 E0.02642
G1 X113.190 Y91.615 E0.03472
G1 X113.841 Y91.067 E0.02669
G1 X114.510 Y90.557 E0.02637
G1 X115.206 Y90.077 E0.02651
G1 X116.150 Y89.498 E0.03470
G1 X116.891 Y89.098 E0.02642
G1 X117.657 Y88.730 E0.02665
G1 X118.436 Y88.400 E0.02651
G1 X119.477 Y88.026 E0.03470
G1 X120.287 Y87.783 E0.02651
G1 X121.387 Y87.519 E0.03548
G1 X122.489 Y87.327 E0.03507
G1 X123.149 Y87.245 E0.02083
G1 X123.204 Y87.254 E0.00175
G1 X123.456 Y87.380 E0.00883
G1 X123.496 Y87.418 E0.00173
G1 X123.859 Y88.046 E0.02275
G1 X123.869 Y88.117 E0.00225
G1 X123.785 Y88.480 E0.01168
G1 X123.739 Y88.543 E0.00245
G1 X118.950 Y91.321 E0.17356
G1 F8640.000
G1 X119.824 Y92.953 E-0.42751
G1 X120.367 Y92.730 E-0.13553
G1 X120.953 Y92.524 E-0.14341
G1 X121.175 Y92.458 E-0.05355
G1 E-0.04000 F2100.00000
G1 Z0.800 F10800.000
G1 X133.631 Y92.377
G1 Z0.200
G1 E0.80000 F2100.00000
G1 F1080.000
G1 X132.353 Y94.592 E0.08018
G1 X132.965 Y95.059 E0.02415
G1 X133.573 Y95.578 E0.02504
G1 X134.009 Y95.994 E0.01889
G1 X134.422 Y96.428 E0.01880
G1 X134.815 Y96.880 E0.01880
G1 X135.305 Y97.511 E0.02504
G1 X135.647 Y98.007 E0.01887
G1 X136.064 Y98.688 E0.02504
G1 X136.349 Y99.215 E0.01880
G1 X136.610 Y99.759 E0.01891
G1 X136.844 Y100.311 E0.01880
G1 X137.116 Y101.065 E0.02514
G1 X137.287 Y101.639 E0.01877
G1 X137.474 Y102.416 E0.02505
G1 X137.582 Y103.008 E0.01888
G1 X137.690 Y103.836 E0.02620
G1 X140.248 Y103.836 E0.08019
G1 X140.248 Y97.999 E0.18302
G1 X140.358 Y97.889 E0.00490
G1 X140.893 Y97.889 E0.01678
G1 X140.986 Y97.949 E0.00348
G1 X141.143 Y98.313 E0.01242
G1 X141.440 Y99.080 E0.02578
G1 X141.618 Y99.601 E0.01726
G1 X141.854 Y100.388 E0.02577
G1 X141.990 Y100.917 E0.01714
G1 X142.213 Y101.997 E0.03458
G1 X142.335 Y102.809 E0.02572
G1 X142.395 Y103.352 E0.01714
G1 X142.464 Y104.449 E0.03446
G1 X142.465 Y105.550 E0.03451
G1 X142.396 Y106.642 E0.03433
G1 X142.258 Y107.734 E0.03451
G1 X142.053 Y108.810 E0.03432
G1 X141.779 Y109.876 E0.03451
G1 X141.440 Y110.919 E0.03440
G1 X140.984 Y112.052 E0.03828
G1 X140.894 Y112.111 E0.00340
G1 X140.358 Y112.111 E0.01678
G1 X140.248 Y112.001 E0.00490
G1 X140.248 Y106.164 E0.18302
G1 X137.690 Y106.164 E0.08019
G1 X137.582 Y106.991 E0.02617
G1 X137.474 Y107.583 E0.01888
G1 X137.287 Y108.360 E0.02505
G1 X137.116 Y108.934 E0.01877
G1 X136.844 Y109.688 E0.02514
G1 X136.611 Y110.240 E0.01880
G1 X136.350 Y110.784 E0.01891
G1 X136.065 Y111.312 E0.01880
G1 X135.648 Y111.993 E0.02504
G1 X135.307 Y112.486 E0.01880
G1 X134.941 Y112.965 E0.01889
G1 X134.423 Y113.572 E0.02504
G1 X134.009 Y114.006 E0.01880
G1 X133.573 Y114.422 E0.01890
G1 X132.965 Y114.941 E0.02504
G1 X132.353 Y115.408 E0.02415
G1 X133.632 Y117.623 E0.08019
G1 X138.687 Y114.705 E0.18302
G1 X138.838 Y114.745 E0.00490
G1 X139.105 Y115.208 E0.01674
G1 X139.099 Y115.317 E0.00342
G1 X138.464 Y116.137 E0.03252
G1 X137.925 Y116.758 E0.02579
G1 X137.357 Y117.354 E0.02581
G1 X136.759 Y117.925 E0.02593
G1 X136.137 Y118.464 E0.02582
G1 X135.490 Y118.974 E0.02581
G1 X134.820 Y119.453 E0.02582
G1 X134.129 Y119.899 E0.02579
G1 X133.177 Y120.442 E0.03437
G1 X132.441 Y120.810 E0.02579
G1 X131.688 Y121.143 E0.02582
G1 X130.917 Y121.441 E0.02591
G1 X130.136 Y121.701 E0.02581
G1 X129.344 Y121.925 E0.02581
G1 X128.542 Y122.110 E0.02582
G1 X127.732 Y122.258 E0.02581
G1 X126.888 Y122.370 E0.02669
G1 X126.789 Y122.320 E0.00350
G1 X126.523 Y121.860 E0.01665
G1 X126.555 Y121.723 E0.00444
G1 X131.616 Y118.787 E0.18346
G1 X130.338 Y116.572 E0.08017
G1 X129.504 Y116.916 E0.02828
G1 X128.935 Y117.116 E0.01890
G1 X128.361 Y117.287 E0.01880
G1 X127.584 Y117.474 E0.02505
G1 X126.991 Y117.582 E0.01889
G1 X126.397 Y117.662 E0.01880
G1 X125.601 Y117.724 E0.02504
G1 X125.001 Y117.738 E0.01880
G1 X124.398 Y117.724 E0.01891
G1 X123.800 Y117.682 E0.01879
G1 X123.008 Y117.582 E0.02504
G1 X122.416 Y117.474 E0.01886
G1 X121.639 Y117.287 E0.02505
G1 X121.065 Y117.116 E0.01880
G1 X120.496 Y116.916 E0.01890
G1 X119.662 Y116.572 E0.02828
G1 X118.384 Y118.787 E0.08018
G1 X123.439 Y121.706 E0.18302
G1 X123.479 Y121.856 E0.00490
G1 X123.212 Y122.319 E0.01676
G1 X123.111 Y122.370 E0.00353
G1 X121.724 Y122.163 E0.04399
G1 X120.922 Y121.991 E0.02572
G1 X120.389 Y121.854 E0.01726
G1 X119.601 Y121.618 E0.02577
G1 X119.083 Y121.441 E0.01719
G1 X118.567 Y121.246 E0.01728
G1 X117.812 Y120.926 E0.02572
G1 X116.822 Y120.442 E0.03453
G1 X115.869 Y119.898 E0.03442
G1 X114.952 Y119.295 E0.03442
G1 X114.074 Y118.636 E0.03442
G1 X113.241 Y117.925 E0.03433
G1 X112.451 Y117.159 E0.03449
