; generated by PrusaSlicer 2.2.0+win64 on 2020-07-18 at 18:59:50 UTC

; 

; external perimeters extrusion width = 0.60mm
; perimeters extrusion width = 0.50mm
; infill extrusion width = 0.50mm
; solid infill extrusion width = 0.50mm
; top infill extrusion width = 0.45mm
; first layer extrusion width = 0.42mm

M73 P0 R62
M73 Q0 S62
M201 X1000 Y1000 Z200 E5000 ; sets maximum accelerations, mm/sec^2
M203 X200 Y200 Z12 E120 ; sets maximum feedrates, mm/sec
M204 P1250 R1250 T1250 ; sets acceleration (P, T) and retract acceleration (R), mm/sec^2
M205 X8.00 Y8.00 Z0.40 E4.50 ; sets the jerk limits, mm/sec
M205 S0 T0 ; sets the minimum extruding and travel feed rate, mm/sec
M107
M862.3 P "MK3S" ; printer model check
M862.1 P0.4 ; nozzle diameter check
M115 U3.9.0 ; tell printer latest fw version
G90 ; use absolute coordinates
M83 ; extruder relative mode
M104 S215 ; set extruder temp
M140 S60 ; set bed temp
M190 S60 ; wait for bed temp
M109 S215 ; wait for extruder temp
G28 W ; home all without mesh bed level
G80 ; mesh bed leveling
G1 Y-3.0 F1000.0 ; go outside print area
G92 E0.0
G1 X60.0 E9.0 F1000.0 ; intro line
M73 Q0 S62
M73 P0 R62
G1 X100.0 E12.5 F1000.0 ; intro line
G92 E0.0
M221 S95
G21 ; set units to millimeters
G90 ; use absolute coordinates
M83 ; use relative distances for extrusion
M900 K0.06 ; Filament gcode LA 1.5
M900 K30 ; Filament gcode LA 1.0
;BEFORE_LAYER_CHANGE
G92 E0.0
;0.2


G1 E-0.80000 F2100.00000
G1 Z0.600 F10800.000
;AFTER_LAYER_CHANGE
;0.2
G1 X109.535 Y93.046
G1 Z0.200
G1 E0.80000 F2100.00000
M204 S1000
G1 F1200.000
G1 X110.774 Y91.595 E0.05985
G1 X112.545 Y89.935 E0.07610
G1 X114.015 Y88.832 E0.05761
G1 X115.621 Y87.850 E0.05903
G1 X117.277 Y87.044 E0.05776
G1 X119.509 Y86.240 E0.07438
G1 X121.315 Y85.804 E0.05826
G1 X122.883 Y85.571 E0.04970
G1 X126.868 Y85.559 E0.12495
G1 X128.652 Y85.797 E0.05644
G1 X130.451 Y86.229 E0.05800
G1 X132.198 Y86.826 E0.05787
G1 X133.913 Y87.604 E0.05904
G1 X135.951 Y88.809 E0.07425
G1 X137.429 Y89.914 E0.05787
G1 X138.820 Y91.177 E0.05890
G1 X140.059 Y92.538 E0.05771
G1 X140.859 Y93.587 E0.04137
G1 X142.817 Y96.980 E0.12282
G1 X143.757 Y99.500 E0.08434
G1 X144.198 Y101.323 E0.05880
G1 X144.460 Y103.157 E0.05808
G1 X144.547 Y104.996 E0.05773
G1 X144.459 Y106.854 E0.05831
G1 X144.208 Y108.622 E0.05601
G1 X143.929 Y109.875 E0.04023
G1 X143.397 Y111.606 E0.05680
G1 X142.817 Y113.021 E0.04792
G1 X140.884 Y116.371 E0.12129
G1 X140.463 Y116.957 E0.02262
G1 X138.854 Y118.789 E0.07645
G1 X137.442 Y120.076 E0.05988
G1 X135.951 Y121.191 E0.05839
G1 X133.913 Y122.396 E0.07425
G1 X132.201 Y123.172 E0.05892
G1 X130.471 Y123.766 E0.05735
G1 X128.681 Y124.197 E0.05775
G1 X127.100 Y124.431 E0.05009
G1 X122.853 Y124.427 E0.13316
G1 X120.759 Y124.081 E0.06657
G1 X118.981 Y123.597 E0.05775
G1 X117.239 Y122.940 E0.05837
G1 X115.599 Y122.138 E0.05725
G1 X114.015 Y121.168 E0.05824
G1 X112.539 Y120.060 E0.05787
G1 X111.177 Y118.820 E0.05775
G1 X109.928 Y117.446 E0.05823
G1 X109.139 Y116.409 E0.04085
G1 X107.183 Y113.020 E0.12269
G1 X106.242 Y110.496 E0.08447
G1 X105.801 Y108.673 E0.05880
G1 X105.540 Y106.843 E0.05795
G1 X105.453 Y105.000 E0.05787
G1 X105.541 Y103.146 E0.05817
G1 X105.792 Y101.378 E0.05601
G1 X106.071 Y100.125 E0.04023
G1 X106.603 Y98.394 E0.05680
G1 X107.181 Y96.983 E0.04779
G1 X109.116 Y93.629 E0.12142
G1 X109.500 Y93.095 E0.02061
G1 X109.805 Y93.315 F10800.000
G1 F1200.000
G1 X111.045 Y91.857 E0.06001
G1 X112.784 Y90.226 E0.07476
G1 X114.226 Y89.144 E0.05650
G1 X115.798 Y88.184 E0.05776
G1 X117.909 Y87.190 E0.07316
G1 X119.623 Y86.600 E0.05686
G1 X121.390 Y86.173 E0.05699
G1 X122.917 Y85.946 E0.04840
G1 X126.868 Y85.936 E0.12387
G1 X128.589 Y86.169 E0.05446
G1 X130.382 Y86.601 E0.05782
G1 X132.579 Y87.392 E0.07321
G1 X134.206 Y88.185 E0.05676
G1 X135.772 Y89.143 E0.05757
G1 X137.217 Y90.227 E0.05663
G1 X138.556 Y91.445 E0.05675
G1 X139.770 Y92.780 E0.05659
G1 X140.539 Y93.787 E0.03971
G1 X142.484 Y97.155 E0.12195
G1 X143.397 Y99.611 E0.08215
G1 X143.828 Y101.397 E0.05760
G1 X144.084 Y103.191 E0.05684
G1 X144.170 Y104.995 E0.05662
G1 X144.083 Y106.819 E0.05726
G1 X143.837 Y108.557 E0.05504
G1 X143.565 Y109.778 E0.03923
G1 X143.042 Y111.479 E0.05577
G1 X142.484 Y112.844 E0.04624
G1 X140.561 Y116.177 E0.12066
G1 X140.165 Y116.727 E0.02125
G1 X138.583 Y118.527 E0.07514
G1 X137.204 Y119.783 E0.05850
G1 X135.746 Y120.875 E0.05710
G1 X133.736 Y122.063 E0.07321
G1 X132.059 Y122.823 E0.05772
G1 X130.366 Y123.404 E0.05614
G1 X128.606 Y123.828 E0.05675
G1 X127.068 Y124.055 E0.04876
G1 X122.889 Y124.051 E0.13102
G1 X120.836 Y123.712 E0.06522
G1 X119.094 Y123.237 E0.05664
G1 X117.390 Y122.595 E0.05710
G1 X115.781 Y121.807 E0.05617
G1 X114.224 Y120.855 E0.05721
G1 X112.780 Y119.770 E0.05663
G1 X111.444 Y118.555 E0.05663
G1 X110.220 Y117.208 E0.05707
G1 X109.459 Y116.210 E0.03935
G1 X107.516 Y112.845 E0.12183
G1 X106.602 Y110.385 E0.08227
G1 X106.172 Y108.603 E0.05748
G1 X105.916 Y106.809 E0.05684
G1 X105.830 Y105.000 E0.05676
G1 X105.917 Y103.181 E0.05712
G1 X106.163 Y101.443 E0.05504
G1 X106.435 Y100.222 E0.03923
G1 X106.957 Y98.525 E0.05565
G1 X107.514 Y97.160 E0.04624
G1 X109.439 Y93.823 E0.12078
G1 X109.770 Y93.364 E0.01775
G1 F8640.000
G1 X111.045 Y91.857 E-0.45574
G1 X112.006 Y90.956 E-0.30426
G1 E-0.04000 F2100.00000
G1 Z0.800 F10800.000
G1 X115.198 Y99.203
G1 Z0.200
G1 E0.80000 F2100.00000
G1 F1200.000
G1 X115.785 Y98.310 E0.03349
G1 X116.226 Y97.741 E0.02257
G1 X116.702 Y97.201 E0.02257
G1 X117.469 Y96.458 E0.03349
G1 X118.306 Y95.787 E0.03364
G1 X119.203 Y95.198 E0.03364
G1 X120.151 Y94.696 E0.03364
G1 X121.143 Y94.285 E0.03364
G1 X122.168 Y93.970 E0.03364
G1 X123.214 Y93.753 E0.03349
G1 X123.928 Y93.663 E0.02258
G1 X124.647 Y93.618 E0.02258
G1 X125.715 Y93.635 E0.03349
G1 X126.781 Y93.752 E0.03364
G1 X127.832 Y93.970 E0.03364
G1 X128.857 Y94.285 E0.03364
G1 X129.849 Y94.696 E0.03364
G1 X130.797 Y95.198 E0.03364
G1 X131.690 Y95.785 E0.03349
G1 X132.259 Y96.226 E0.02257
G1 X132.799 Y96.702 E0.02258
G1 X133.542 Y97.469 E0.03350
G1 X134.213 Y98.306 E0.03364
G1 X134.802 Y99.203 E0.03364
G1 X135.304 Y100.151 E0.03364
G1 X135.715 Y101.143 E0.03364
G1 X136.030 Y102.168 E0.03364
G1 X136.247 Y103.214 E0.03349
G1 X136.337 Y103.928 E0.02257
G1 X136.382 Y104.647 E0.02258
G1 X136.365 Y105.715 E0.03349
G1 X136.248 Y106.781 E0.03364
G1 X136.030 Y107.832 E0.03364
G1 X135.715 Y108.858 E0.03364
G1 X135.304 Y109.849 E0.03364
G1 X134.802 Y110.797 E0.03364
G1 X134.215 Y111.690 E0.03349
G1 X133.774 Y112.259 E0.02257
G1 X133.298 Y112.799 E0.02258
G1 X132.531 Y113.542 E0.03349
G1 X131.694 Y114.213 E0.03364
G1 X130.797 Y114.802 E0.03364
G1 X129.849 Y115.304 E0.03364
G1 X128.857 Y115.715 E0.03364
G1 X127.832 Y116.030 E0.03364
G1 X126.786 Y116.247 E0.03349
G1 X126.072 Y116.337 E0.02258
G1 X125.353 Y116.382 E0.02258
G1 X124.285 Y116.365 E0.03349
G1 X123.219 Y116.248 E0.03364
G1 X122.168 Y116.030 E0.03364
G1 X121.143 Y115.715 E0.03364
G1 X120.151 Y115.304 E0.03364
G1 X119.203 Y114.802 E0.03364
G1 X118.310 Y114.215 E0.03349
G1 X117.741 Y113.774 E0.02257
G1 X117.201 Y113.298 E0.02257
G1 X116.458 Y112.531 E0.03350
G1 X115.787 Y111.694 E0.03364
G1 X115.198 Y110.797 E0.03364
G1 X114.696 Y109.849 E0.03364
G1 X114.285 Y108.857 E0.03364
G1 X113.970 Y107.832 E0.03364
G1 X113.753 Y106.786 E0.03349
G1 X113.663 Y106.072 E0.02257
G1 X113.618 Y105.353 E0.02258
G1 X113.635 Y104.285 E0.03349
G1 X113.752 Y103.219 E0.03364
G1 X113.970 Y102.168 E0.03364
G1 X114.285 Y101.142 E0.03364
G1 X114.696 Y100.151 E0.03364
G1 X115.170 Y99.256 E0.03176
G1 X115.503 Y99.433 F10800.000
G1 F1200.000
G1 X116.092 Y98.530 E0.03379
G1 X116.517 Y97.982 E0.02174
G1 X116.975 Y97.462 E0.02174
G1 X117.719 Y96.741 E0.03247
G1 X118.528 Y96.093 E0.03252
G1 X119.395 Y95.523 E0.03252
G1 X120.312 Y95.038 E0.03252
G1 X121.270 Y94.641 E0.03252
G1 X122.262 Y94.336 E0.03252
G1 X123.276 Y94.126 E0.03247
G1 X123.964 Y94.039 E0.02174
G1 X124.656 Y93.995 E0.02174
G1 X125.691 Y94.011 E0.03247
G1 X126.722 Y94.125 E0.03252
G1 X127.738 Y94.336 E0.03252
G1 X128.730 Y94.641 E0.03252
G1 X129.688 Y95.038 E0.03252
G1 X130.605 Y95.523 E0.03252
G1 X131.470 Y96.092 E0.03247
G1 X132.018 Y96.517 E0.02174
G1 X132.538 Y96.975 E0.02174
G1 X133.259 Y97.719 E0.03247
G1 X133.908 Y98.528 E0.03252
G1 X134.477 Y99.395 E0.03252
G1 X134.962 Y100.312 E0.03252
G1 X135.359 Y101.270 E0.03252
G1 X135.664 Y102.262 E0.03252
G1 X135.874 Y103.276 E0.03247
G1 X135.961 Y103.964 E0.02174
G1 X136.005 Y104.656 E0.02174
G1 X135.989 Y105.691 E0.03247
G1 X135.875 Y106.722 E0.03252
G1 X135.664 Y107.738 E0.03252
G1 X135.359 Y108.730 E0.03252
G1 X134.962 Y109.688 E0.03252
G1 X134.477 Y110.605 E0.03252
G1 X133.908 Y111.470 E0.03247
G1 X133.483 Y112.018 E0.02174
G1 X133.025 Y112.538 E0.02174
G1 X132.281 Y113.259 E0.03247
G1 X131.472 Y113.907 E0.03252
G1 X130.605 Y114.477 E0.03252
G1 X129.688 Y114.962 E0.03252
G1 X128.730 Y115.359 E0.03252
G1 X127.738 Y115.664 E0.03252
G1 X126.724 Y115.874 E0.03247
G1 X126.036 Y115.961 E0.02174
G1 X125.344 Y116.005 E0.02174
G1 X124.309 Y115.989 E0.03247
G1 X123.278 Y115.875 E0.03252
G1 X122.262 Y115.664 E0.03252
G1 X121.270 Y115.359 E0.03252
G1 X120.312 Y114.962 E0.03252
G1 X119.395 Y114.477 E0.03252
G1 X118.530 Y113.908 E0.03247
G1 X117.982 Y113.483 E0.02174
G1 X117.462 Y113.025 E0.02174
G1 X116.741 Y112.281 E0.03247
G1 X116.092 Y111.472 E0.03252
G1 X115.523 Y110.605 E0.03252
G1 X115.038 Y109.688 E0.03252
G1 X114.641 Y108.730 E0.03252
G1 X114.336 Y107.738 E0.03252
G1 X114.126 Y106.724 E0.03247
G1 X114.039 Y106.036 E0.02174
G1 X113.995 Y105.344 E0.02174
G1 X114.011 Y104.309 E0.03247
G1 X114.125 Y103.278 E0.03252
G1 X114.336 Y102.262 E0.03252
G1 X114.641 Y101.270 E0.03252
G1 X115.038 Y100.312 E0.03252
G1 X115.475 Y99.486 E0.02932
G1 X115.306 Y99.085 F10800.000
G1 F8640.000
G1 X116.092 Y98.530 E-0.26264
G1 X116.517 Y97.982 E-0.16009
G1 X116.975 Y97.462 E-0.16009
G1 X117.526 Y96.928 E-0.17718
G1 E-0.04000 F2100.00000
G1 Z0.800 F10800.000
G1 X133.024 Y91.479
G1 Z0.200
G1 E0.80000 F2100.00000
G1 F1200.000
G1 X131.058 Y94.882 E0.12324
G1 X131.910 Y95.481 E0.03264
G1 X132.498 Y95.937 E0.02331
G1 X133.053 Y96.426 E0.02320
G1 X133.575 Y96.948 E0.02314
G1 X134.063 Y97.502 E0.02317
G1 X134.513 Y98.082 E0.02303
G1 X135.124 Y99.013 E0.03489
G1 X135.645 Y99.996 E0.03489
G1 X135.937 Y100.670 E0.02302
G1 X136.187 Y101.365 E0.02317
G1 X136.393 Y102.075 E0.02317
G1 X136.554 Y102.796 E0.02317
G1 X136.670 Y103.526 E0.02317
G1 X136.791 Y104.812 E0.04051
G1 X140.722 Y104.812 E0.12323
G1 X140.721 Y101.999 E0.08820
G1 X140.880 Y102.999 E0.03173
G1 X140.934 Y103.489 E0.01547
G1 X140.997 Y104.497 E0.03167
G1 X140.997 Y105.503 E0.03153
G1 X140.934 Y106.506 E0.03152
G1 X140.808 Y107.504 E0.03153
G1 X140.721 Y107.960 E0.01455
G1 X140.722 Y105.188 E0.08690
G1 X136.791 Y105.188 E0.12323
G1 X136.670 Y106.474 E0.04051
G1 X136.554 Y107.204 E0.02317
G1 X136.393 Y107.925 E0.02317
G1 X136.187 Y108.635 E0.02317
G1 X135.937 Y109.330 E0.02317
G1 X135.645 Y110.003 E0.02300
G1 X135.124 Y110.987 E0.03492
G1 X134.513 Y111.918 E0.03489
G1 X134.063 Y112.498 E0.02303
G1 X133.575 Y113.052 E0.02317
G1 X133.052 Y113.575 E0.02317
G1 X132.498 Y114.063 E0.02317
G1 X131.910 Y114.519 E0.02331
G1 X131.058 Y115.118 E0.03264
G1 X133.024 Y118.521 E0.12324
G1 X135.453 Y117.119 E0.08796
G1 X134.408 Y117.949 E0.04185
G1 X133.576 Y118.514 E0.03152
G1 X132.711 Y119.026 E0.03153
G1 X131.815 Y119.482 E0.03153
G1 X130.892 Y119.881 E0.03152
G1 X130.296 Y120.096 E0.01987
G1 X132.698 Y118.709 E0.08697
G1 X130.730 Y115.301 E0.12340
G1 X129.672 Y115.795 E0.03661
G1 X128.984 Y116.067 E0.02320
G1 X128.282 Y116.296 E0.02317
G1 X127.566 Y116.479 E0.02317
G1 X126.840 Y116.618 E0.02317
G1 X126.112 Y116.710 E0.02302
G1 X125.000 Y116.762 E0.03489
G1 X123.888 Y116.710 E0.03489
G1 X123.160 Y116.618 E0.02302
G1 X122.434 Y116.479 E0.02317
G1 X121.718 Y116.296 E0.02317
G1 X121.016 Y116.067 E0.02317
G1 X120.328 Y115.795 E0.02320
G1 X119.270 Y115.301 E0.03661
G1 X117.302 Y118.709 E0.12340
G1 X119.704 Y120.096 E0.08698
G1 X119.108 Y119.881 E0.01987
G1 X118.181 Y119.480 E0.03167
G1 X117.738 Y119.263 E0.01548
G1 X116.853 Y118.777 E0.03167
G1 X116.000 Y118.235 E0.03167
G1 X115.596 Y117.952 E0.01547
G1 X114.798 Y117.332 E0.03168
G1 X114.570 Y117.132 E0.00951
G1 X116.976 Y118.521 E0.08712
G1 X118.942 Y115.118 E0.12324
G1 X118.090 Y114.519 E0.03264
G1 X117.502 Y114.063 E0.02331
G1 X116.947 Y113.574 E0.02320
G1 X116.425 Y113.052 E0.02314
G1 X115.937 Y112.498 E0.02317
G1 X115.487 Y111.918 E0.02303
G1 X114.876 Y110.987 E0.03489
G1 X114.355 Y110.004 E0.03489
G1 X114.063 Y109.330 E0.02302
G1 X113.813 Y108.635 E0.02317
G1 X113.607 Y107.925 E0.02317
G1 X113.446 Y107.204 E0.02317
G1 X113.330 Y106.474 E0.02317
G1 X113.209 Y105.188 E0.04051
G1 X109.278 Y105.188 E0.12323
G1 X109.279 Y108.001 E0.08820
G1 X109.120 Y107.001 E0.03173
G1 X109.066 Y106.511 E0.01547
G1 X109.003 Y105.503 E0.03167
G1 X109.003 Y104.497 E0.03153
G1 X109.066 Y103.494 E0.03152
G1 X109.192 Y102.496 E0.03153
G1 X109.279 Y102.040 E0.01455
G1 X109.278 Y104.812 E0.08690
G1 X113.209 Y104.812 E0.12323
G1 X113.330 Y103.526 E0.04051
G1 X113.446 Y102.796 E0.02317
G1 X113.607 Y102.075 E0.02317
G1 X113.813 Y101.365 E0.02317
G1 X114.063 Y100.670 E0.02317
G1 X114.355 Y99.997 E0.02300
G1 X114.876 Y99.013 E0.03492
G1 X115.487 Y98.082 E0.03489
G1 X115.937 Y97.502 E0.02303
G1 X116.425 Y96.948 E0.02317
G1 X116.948 Y96.425 E0.02317
G1 X117.502 Y95.937 E0.02317
G1 X118.090 Y95.481 E0.02331
G1 X118.942 Y94.882 E0.03264
G1 X116.976 Y91.479 E0.12324
G1 X114.547 Y92.881 E0.08796
G1 X115.592 Y92.051 E0.04185
G1 X116.424 Y91.486 E0.03152
G1 X117.289 Y90.974 E0.03153
G1 X118.185 Y90.518 E0.03153
G1 X119.108 Y90.119 E0.03152
G1 X119.704 Y89.904 E0.01987
G1 X117.302 Y91.291 E0.08697
G1 X119.270 Y94.699 E0.12340
G1 X120.328 Y94.205 E0.03661
G1 X121.016 Y93.933 E0.02320
G1 X121.718 Y93.704 E0.02317
G1 X122.434 Y93.521 E0.02317
G1 X123.160 Y93.382 E0.02317
G1 X123.888 Y93.290 E0.02302
G1 X125.000 Y93.238 E0.03489
G1 X126.112 Y93.290 E0.03489
G1 X126.840 Y93.382 E0.02302
G1 X127.566 Y93.521 E0.02317
G1 X128.282 Y93.704 E0.02317
G1 X128.984 Y93.933 E0.02317
G1 X129.672 Y94.205 E0.02320
G1 X130.730 Y94.699 E0.03661
G1 X132.698 Y91.291 E0.12340
G1 X130.296 Y89.904 E0.08698
G1 X130.892 Y90.119 E0.01987
G1 X131.819 Y90.520 E0.03167
G1 X132.262 Y90.737 E0.01548
G1 X133.147 Y91.223 E0.03167
G1 X134.000 Y91.765 E0.03167
G1 X134.404 Y92.048 E0.01547
G1 X135.202 Y92.668 E0.03168
G1 X135.430 Y92.868 E0.00951
G1 X133.076 Y91.509 E0.08524
G1 X133.162 Y91.994 F10800.000
G1 F1200.000
G1 X131.557 Y94.772 E0.10060
G1 X132.134 Y95.178 E0.02211
G1 X132.738 Y95.646 E0.02396
G1 X133.311 Y96.151 E0.02394
G1 X133.850 Y96.690 E0.02388
G1 X134.354 Y97.262 E0.02391
G1 X134.820 Y97.863 E0.02386
G1 X135.449 Y98.820 E0.03591
G1 X135.985 Y99.833 E0.03591
G1 X136.287 Y100.531 E0.02386
G1 X136.546 Y101.249 E0.02391
G1 X136.758 Y101.981 E0.02391
G1 X136.925 Y102.725 E0.02391
G1 X137.044 Y103.478 E0.02391
G1 X137.135 Y104.435 E0.03013
G1 X140.345 Y104.435 E0.10065
G1 X140.344 Y101.626 E0.08809
G1 X140.327 Y100.657 E0.03036
G1 X140.283 Y100.164 E0.01551
G1 X140.144 Y99.215 E0.03010
G1 X140.144 Y98.778 E0.01368
G1 X140.176 Y98.661 E0.00380
G1 X140.225 Y98.755 E0.00331
G1 X140.435 Y98.941 E0.00881
G1 X140.506 Y99.126 E0.00621
G1 X140.562 Y99.366 E0.00770
G1 X140.749 Y100.403 E0.03307
G1 X141.092 Y101.930 E0.04907
G1 X141.254 Y102.948 E0.03232
G1 X141.310 Y103.457 E0.01603
G1 X141.375 Y104.485 E0.03232
G1 X141.375 Y105.515 E0.03227
G1 X141.310 Y106.542 E0.03227
G1 X141.181 Y107.563 E0.03227
G1 X140.988 Y108.576 E0.03235
G1 X140.750 Y109.595 E0.03279
G1 X140.504 Y110.878 E0.04096
G1 X140.435 Y111.059 E0.00607
G1 X140.225 Y111.245 E0.00881
G1 X140.176 Y111.339 E0.00331
G1 X140.144 Y111.222 E0.00380
G1 X140.144 Y110.785 E0.01368
G1 X140.283 Y109.836 E0.03010
G1 X140.327 Y109.343 E0.01551
G1 X140.344 Y108.374 E0.03036
G1 X140.345 Y105.565 E0.08809
G1 X137.135 Y105.565 E0.10065
G1 X137.044 Y106.522 E0.03013
G1 X136.925 Y107.275 E0.02391
G1 X136.758 Y108.019 E0.02391
G1 X136.546 Y108.751 E0.02391
G1 X136.287 Y109.469 E0.02391
G1 X135.986 Y110.167 E0.02383
