; generated by PrusaSlicer 2.2.0+win64 on 2020-07-18 at 18:59:35 UTC

; 

; external perimeters extrusion width = 0.60mm
; perimeters extrusion width = 0.50mm
; infill extrusion width = 0.50mm
; solid infill extrusion width = 0.50mm
; top infill extrusion width = 0.45mm
; first layer extrusion width = 0.42mm

M73 P0 R62
M73 Q0 S62
M201 X1000 Y1000 Z200 E5000 ; sets maximum accelerations, mm/sec^2
M203 X200 Y200 Z12 E120 ; sets maximum feedrates, mm/sec
M204 P1250 R1250 T1250 ; sets acceleration (P, T) and retract acceleration (R), mm/sec^2
M205 X8.00 Y8.00 Z0.40 E4.50 ; sets the jerk limits, mm/sec
M205 S0 T0 ; sets the minimum extruding and travel feed rate, mm/sec
M107
M862.3 P "MK3S" ; printer model check
M862.1 P0.4 ; nozzle diameter check
M115 U3.9.0 ; tell printer latest fw version
G90 ; use absolute coordinates
M83 ; extruder relative mode
M104 S215 ; set extruder temp
M140 S60 ; set bed temp
M190 S60 ; wait for bed temp
M109 S215 ; wait for extruder temp
G28 W ; home all without mesh bed level
G80 ; mesh bed leveling
G1 Y-3.0 F1000.0 ; go outside print area
G92 E0.0
G1 X60.0 E9.0 F1000.0 ; intro line
M73 Q0 S62
M73 P0 R62
G1 X100.0 E12.5 F1000.0 ; intro line
G92 E0.0
M221 S95
G21 ; set units to millimeters
G90 ; use absolute coordinates
M83 ; use relative distances for extrusion
M900 K0.06 ; Filament gcode LA 1.5
M900 K30 ; Filament gcode LA 1.0
;BEFORE_LAYER_CHANGE
G92 E0.0
;0.2


G1 E-0.80000 F2100.00000
G1 Z0.600 F10800.000
;AFTER_LAYER_CHANGE
;0.2
G1 X109.636 Y93.116
G1 Z0.200
G1 E0.80000 F2100.00000
M204 S1000
G1 F1200.000
G1 X110.869 Y91.674 E0.05950
G1 X112.623 Y90.030 E0.07538
G1 X114.084 Y88.934 E0.05725
G1 X115.676 Y87.960 E0.05853
G1 X117.326 Y87.157 E0.05753
G1 X119.543 Y86.359 E0.07390
G1 X121.342 Y85.924 E0.05802
G1 X122.897 Y85.693 E0.04929
G1 X126.855 Y85.681 E0.12409
G1 X128.630 Y85.918 E0.05615
G1 X130.417 Y86.347 E0.05763
G1 X132.152 Y86.941 E0.05750
G1 X133.856 Y87.713 E0.05867
G1 X135.882 Y88.911 E0.07378
G1 X137.351 Y90.009 E0.05750
G1 X138.734 Y91.264 E0.05855
G1 X139.964 Y92.616 E0.05733
G1 X140.757 Y93.657 E0.04103
G1 X142.704 Y97.029 E0.12208
G1 X143.640 Y99.538 E0.08398
G1 X144.078 Y101.349 E0.05840
G1 X144.337 Y103.165 E0.05753
G1 X144.424 Y104.997 E0.05750
G1 X144.335 Y106.852 E0.05823
G1 X144.088 Y108.596 E0.05523
G1 X143.808 Y109.852 E0.04034
G1 X143.281 Y111.563 E0.05615
G1 X142.705 Y112.970 E0.04767
G1 X140.785 Y116.298 E0.12048
G1 X140.362 Y116.887 E0.02274
G1 X139.129 Y118.328 E0.05945
G1 X137.364 Y119.981 E0.07581
G1 X135.882 Y121.089 E0.05803
G1 X133.856 Y122.287 E0.07378
G1 X132.156 Y123.058 E0.05853
G1 X130.437 Y123.647 E0.05699
G1 X128.658 Y124.076 E0.05738
G1 X127.091 Y124.308 E0.04968
G1 X122.867 Y124.304 E0.13243
G1 X120.789 Y123.962 E0.06604
G1 X119.019 Y123.480 E0.05751
G1 X117.288 Y122.827 E0.05802
G1 X115.659 Y122.030 E0.05686
G1 X114.084 Y121.067 E0.05790
G1 X112.617 Y119.965 E0.05750
G1 X111.264 Y118.733 E0.05740
G1 X110.023 Y117.368 E0.05784
G1 X109.241 Y116.339 E0.04052
G1 X107.296 Y112.971 E0.12195
G1 X106.360 Y110.462 E0.08398
G1 X105.922 Y108.651 E0.05840
G1 X105.663 Y106.835 E0.05753
G1 X105.576 Y104.999 E0.05764
G1 X105.665 Y103.148 E0.05809
G1 X105.912 Y101.404 E0.05523
G1 X106.192 Y100.148 E0.04034
G1 X106.719 Y98.437 E0.05615
G1 X107.295 Y97.030 E0.04767
G1 X109.215 Y93.702 E0.12048
G1 X109.601 Y93.165 E0.02073
G1 X109.907 Y93.385 F10800.000
G1 F1200.000
G1 X111.141 Y91.934 E0.05974
G1 X112.863 Y90.321 E0.07396
G1 X114.295 Y89.246 E0.05615
G1 X115.855 Y88.292 E0.05733
G1 X117.954 Y87.305 E0.07274
G1 X119.658 Y86.718 E0.05650
G1 X121.413 Y86.294 E0.05662
G1 X122.931 Y86.068 E0.04812
G1 X126.854 Y86.058 E0.12301
G1 X128.566 Y86.290 E0.05417
G1 X130.348 Y86.719 E0.05745
G1 X132.046 Y87.305 E0.05633
G1 X134.143 Y88.291 E0.07265
G1 X135.703 Y89.245 E0.05734
G1 X137.138 Y90.322 E0.05626
G1 X138.469 Y91.533 E0.05640
G1 X139.675 Y92.859 E0.05621
G1 X140.439 Y93.860 E0.03949
G1 X142.371 Y97.204 E0.12109
G1 X143.279 Y99.649 E0.08177
G1 X143.707 Y101.419 E0.05708
G1 X143.962 Y103.200 E0.05641
G1 X144.047 Y104.996 E0.05638
G1 X143.960 Y106.814 E0.05706
G1 X143.716 Y108.531 E0.05438
G1 X143.445 Y109.751 E0.03921
G1 X142.927 Y111.436 E0.05526
G1 X142.372 Y112.793 E0.04598
G1 X140.462 Y116.104 E0.11984
G1 X140.063 Y116.657 E0.02136
G1 X138.859 Y118.066 E0.05813
G1 X137.126 Y119.688 E0.07443
G1 X135.702 Y120.756 E0.05579
G1 X134.143 Y121.709 E0.05729
G1 X132.046 Y122.695 E0.07265
G1 X130.332 Y123.285 E0.05686
G1 X128.583 Y123.707 E0.05638
G1 X127.054 Y123.933 E0.04848
G1 X122.902 Y123.929 E0.13016
G1 X120.867 Y123.593 E0.06469
G1 X119.132 Y123.120 E0.05638
G1 X117.438 Y122.482 E0.05674
G1 X115.840 Y121.700 E0.05578
G1 X114.297 Y120.755 E0.05675
G1 X112.859 Y119.675 E0.05638
G1 X111.531 Y118.467 E0.05628
G1 X110.315 Y117.129 E0.05669
G1 X109.561 Y116.140 E0.03901
G1 X107.627 Y112.792 E0.12121
G1 X106.721 Y110.351 E0.08165
G1 X106.293 Y108.581 E0.05708
G1 X106.038 Y106.800 E0.05641
G1 X105.953 Y105.000 E0.05652
G1 X106.040 Y103.186 E0.05692
G1 X106.284 Y101.469 E0.05438
G1 X106.555 Y100.249 E0.03921
G1 X107.073 Y98.564 E0.05526
G1 X107.628 Y97.207 E0.04598
G1 X109.538 Y93.896 E0.11984
G1 X109.872 Y93.434 E0.01787
G1 F8640.000
G1 X111.141 Y91.934 E-0.45376
G1 X112.109 Y91.027 E-0.30624
G1 E-0.04000 F2100.00000
G1 Z0.800 F10800.000
G1 X115.198 Y99.203
G1 Z0.200
G1 E0.80000 F2100.00000
G1 F1200.000
G1 X115.785 Y98.310 E0.03349
G1 X116.226 Y97.741 E0.02257
G1 X116.702 Y97.201 E0.02257
G1 X117.469 Y96.458 E0.03349
G1 X118.306 Y95.787 E0.03364
G1 X119.203 Y95.198 E0.03364
G1 X120.151 Y94.696 E0.03364
G1 X121.143 Y94.285 E0.03364
G1 X122.168 Y93.970 E0.03364
G1 X123.214 Y93.753 E0.03349
G1 X123.928 Y93.663 E0.02258
G1 X124.647 Y93.618 E0.02258
G1 X125.715 Y93.635 E0.03349
G1 X126.781 Y93.752 E0.03364
G1 X127.832 Y93.970 E0.03364
G1 X128.857 Y94.285 E0.03364
G1 X129.849 Y94.696 E0.03364
G1 X130.797 Y95.198 E0.03364
G1 X131.690 Y95.785 E0.03349
G1 X132.259 Y96.226 E0.02257
G1 X132.799 Y96.702 E0.02258
G1 X133.542 Y97.469 E0.03350
G1 X134.213 Y98.306 E0.03364
G1 X134.802 Y99.203 E0.03364
G1 X135.304 Y100.151 E0.03364
G1 X135.715 Y101.143 E0.03364
G1 X136.030 Y102.168 E0.03364
G1 X136.247 Y103.214 E0.03349
G1 X136.337 Y103.928 E0.02257
G1 X136.382 Y104.647 E0.02258
G1 X136.365 Y105.715 E0.03349
G1 X136.248 Y106.781 E0.03364
G1 X136.030 Y107.832 E0.03364
G1 X135.715 Y108.858 E0.03364
G1 X135.304 Y109.849 E0.03364
G1 X134.802 Y110.797 E0.03364
G1 X134.215 Y111.690 E0.03349
G1 X133.774 Y112.259 E0.02257
G1 X133.298 Y112.799 E0.02258
G1 X132.531 Y113.542 E0.03349
G1 X131.694 Y114.213 E0.03364
G1 X130.797 Y114.802 E0.03364
G1 X129.849 Y115.304 E0.03364
G1 X128.857 Y115.715 E0.03364
G1 X127.832 Y116.030 E0.03364
G1 X126.786 Y116.247 E0.03349
G1 X126.072 Y116.337 E0.02258
G1 X125.353 Y116.382 E0.02258
G1 X124.285 Y116.365 E0.03349
G1 X123.219 Y116.248 E0.03364
G1 X122.168 Y116.030 E0.03364
G1 X121.143 Y115.715 E0.03364
G1 X120.151 Y115.304 E0.03364
G1 X119.203 Y114.802 E0.03364
G1 X118.310 Y114.215 E0.03349
G1 X117.741 Y113.774 E0.02257
G1 X117.201 Y113.298 E0.02257
G1 X116.458 Y112.531 E0.03350
G1 X115.787 Y111.694 E0.03364
G1 X115.198 Y110.797 E0.03364
G1 X114.696 Y109.849 E0.03364
G1 X114.285 Y108.857 E0.03364
G1 X113.970 Y107.832 E0.03364
G1 X113.753 Y106.786 E0.03349
G1 X113.663 Y106.072 E0.02257
G1 X113.618 Y105.353 E0.02258
G1 X113.635 Y104.285 E0.03349
G1 X113.752 Y103.219 E0.03364
G1 X113.970 Y102.168 E0.03364
G1 X114.285 Y101.142 E0.03364
G1 X114.696 Y100.151 E0.03364
G1 X115.170 Y99.256 E0.03176
G1 X115.503 Y99.433 F10800.000
G1 F1200.000
G1 X116.092 Y98.530 E0.03379
G1 X116.517 Y97.982 E0.02174
G1 X116.975 Y97.462 E0.02174
G1 X117.719 Y96.741 E0.03247
G1 X118.528 Y96.093 E0.03252
G1 X119.395 Y95.523 E0.03252
G1 X120.312 Y95.038 E0.03252
G1 X121.270 Y94.641 E0.03252
G1 X122.262 Y94.336 E0.03252
G1 X123.276 Y94.126 E0.03247
G1 X123.964 Y94.039 E0.02174
G1 X124.656 Y93.995 E0.02174
G1 X125.691 Y94.011 E0.03247
G1 X126.722 Y94.125 E0.03252
G1 X127.738 Y94.336 E0.03252
G1 X128.730 Y94.641 E0.03252
G1 X129.688 Y95.038 E0.03252
G1 X130.605 Y95.523 E0.03252
G1 X131.470 Y96.092 E0.03247
G1 X132.018 Y96.517 E0.02174
G1 X132.538 Y96.975 E0.02174
G1 X133.259 Y97.719 E0.03247
G1 X133.908 Y98.528 E0.03252
G1 X134.477 Y99.395 E0.03252
G1 X134.962 Y100.312 E0.03252
G1 X135.359 Y101.270 E0.03252
G1 X135.664 Y102.262 E0.03252
G1 X135.874 Y103.276 E0.03247
G1 X135.961 Y103.964 E0.02174
G1 X136.005 Y104.656 E0.02174
G1 X135.989 Y105.691 E0.03247
G1 X135.875 Y106.722 E0.03252
G1 X135.664 Y107.738 E0.03252
G1 X135.359 Y108.730 E0.03252
G1 X134.962 Y109.688 E0.03252
G1 X134.477 Y110.605 E0.03252
G1 X133.908 Y111.470 E0.03247
G1 X133.483 Y112.018 E0.02174
G1 X133.025 Y112.538 E0.02174
G1 X132.281 Y113.259 E0.03247
G1 X131.472 Y113.907 E0.03252
G1 X130.605 Y114.477 E0.03252
G1 X129.688 Y114.962 E0.03252
G1 X128.730 Y115.359 E0.03252
G1 X127.738 Y115.664 E0.03252
G1 X126.724 Y115.874 E0.03247
G1 X126.036 Y115.961 E0.02174
G1 X125.344 Y116.005 E0.02174
G1 X124.309 Y115.989 E0.03247
G1 X123.278 Y115.875 E0.03252
G1 X122.262 Y115.664 E0.03252
G1 X121.270 Y115.359 E0.03252
G1 X120.312 Y114.962 E0.03252
G1 X119.395 Y114.477 E0.03252
G1 X118.530 Y113.908 E0.03247
G1 X117.982 Y113.483 E0.02174
G1 X117.462 Y113.025 E0.02174
G1 X116.741 Y112.281 E0.03247
G1 X116.092 Y111.472 E0.03252
G1 X115.523 Y110.605 E0.03252
G1 X115.038 Y109.688 E0.03252
G1 X114.641 Y108.730 E0.03252
G1 X114.336 Y107.738 E0.03252
G1 X114.126 Y106.724 E0.03247
G1 X114.039 Y106.036 E0.02174
G1 X113.995 Y105.344 E0.02174
G1 X114.011 Y104.309 E0.03247
G1 X114.125 Y103.278 E0.03252
G1 X114.336 Y102.262 E0.03252
G1 X114.641 Y101.270 E0.03252
G1 X115.038 Y100.312 E0.03252
G1 X115.475 Y99.486 E0.02932
G1 X115.306 Y99.085 F10800.000
G1 F8640.000
G1 X116.092 Y98.530 E-0.26264
G1 X116.517 Y97.982 E-0.16009
G1 X116.975 Y97.462 E-0.16009
G1 X117.526 Y96.928 E-0.17718
G1 E-0.04000 F2100.00000
G1 Z0.800 F10800.000
G1 X117.363 Y91.397
G1 Z0.200
G1 E0.80000 F2100.00000
G1 F1200.000
G1 X119.270 Y94.699 E0.11956
G1 X120.328 Y94.205 E0.03661
G1 X121.016 Y93.933 E0.02320
G1 X121.718 Y93.704 E0.02317
G1 X122.434 Y93.521 E0.02317
G1 X123.160 Y93.382 E0.02317
G1 X123.888 Y93.290 E0.02302
G1 X125.000 Y93.238 E0.03489
G1 X126.112 Y93.290 E0.03489
G1 X126.840 Y93.382 E0.02302
G1 X127.566 Y93.521 E0.02317
G1 X128.282 Y93.704 E0.02317
G1 X128.984 Y93.933 E0.02317
G1 X129.672 Y94.205 E0.02320
G1 X130.730 Y94.699 E0.03661
G1 X132.637 Y91.397 E0.11956
G1 X130.174 Y89.991 E0.08892
G1 X130.847 Y90.233 E0.02242
G1 X131.762 Y90.629 E0.03128
G1 X132.656 Y91.084 E0.03143
G1 X133.506 Y91.587 E0.03100
G1 X134.335 Y92.151 E0.03143
G1 X135.124 Y92.762 E0.03129
G1 X135.408 Y93.012 E0.01185
G1 X132.962 Y91.585 E0.08878
G1 X131.058 Y94.882 E0.11939
G1 X131.910 Y95.481 E0.03264
G1 X132.498 Y95.937 E0.02331
G1 X133.053 Y96.426 E0.02320
G1 X133.575 Y96.948 E0.02314
G1 X134.063 Y97.502 E0.02317
G1 X134.513 Y98.082 E0.02303
G1 X135.124 Y99.013 E0.03489
G1 X135.645 Y99.996 E0.03489
G1 X135.937 Y100.670 E0.02302
G1 X136.187 Y101.365 E0.02317
G1 X136.393 Y102.075 E0.02317
G1 X136.554 Y102.796 E0.02317
G1 X136.670 Y103.526 E0.02317
G1 X136.791 Y104.812 E0.04051
G1 X140.599 Y104.812 E0.11938
G1 X140.585 Y101.955 E0.08958
G1 X140.758 Y103.014 E0.03364
G1 X140.812 Y103.501 E0.01535
G1 X140.875 Y104.501 E0.03143
G1 X140.875 Y105.499 E0.03128
G1 X140.812 Y106.495 E0.03128
G1 X140.687 Y107.485 E0.03128
G1 X140.586 Y108.016 E0.01696
G1 X140.599 Y105.188 E0.08867
G1 X136.791 Y105.188 E0.11938
G1 X136.670 Y106.474 E0.04051
G1 X136.554 Y107.204 E0.02317
G1 X136.393 Y107.925 E0.02317
G1 X136.187 Y108.635 E0.02317
G1 X135.937 Y109.330 E0.02317
G1 X135.645 Y110.003 E0.02300
G1 X135.124 Y110.987 E0.03492
G1 X134.513 Y111.918 E0.03489
G1 X134.063 Y112.498 E0.02303
G1 X133.575 Y113.052 E0.02317
G1 X133.052 Y113.575 E0.02317
G1 X132.498 Y114.063 E0.02317
G1 X131.910 Y114.519 E0.02331
G1 X131.058 Y115.118 E0.03264
G1 X132.962 Y118.415 E0.11939
G1 X135.437 Y116.971 E0.08983
G1 X135.127 Y117.235 E0.01275
G1 X134.335 Y117.849 E0.03143
G1 X133.510 Y118.410 E0.03128
G1 X132.651 Y118.918 E0.03128
G1 X131.762 Y119.371 E0.03128
G1 X130.847 Y119.767 E0.03128
G1 X130.174 Y120.009 E0.02242
G1 X132.637 Y118.603 E0.08892
G1 X130.730 Y115.301 E0.11956
G1 X129.672 Y115.795 E0.03661
G1 X128.984 Y116.067 E0.02320
G1 X128.282 Y116.296 E0.02317
G1 X127.566 Y116.479 E0.02317
G1 X126.840 Y116.618 E0.02317
G1 X126.112 Y116.710 E0.02302
G1 X125.000 Y116.762 E0.03489
G1 X123.888 Y116.710 E0.03489
G1 X123.160 Y116.618 E0.02302
G1 X122.434 Y116.479 E0.02317
G1 X121.718 Y116.296 E0.02317
G1 X121.016 Y116.067 E0.02317
G1 X120.328 Y115.795 E0.02320
G1 X119.270 Y115.301 E0.03661
G1 X117.363 Y118.603 E0.11956
G1 X119.826 Y120.009 E0.08892
G1 X119.153 Y119.767 E0.02242
G1 X118.238 Y119.371 E0.03128
G1 X117.343 Y118.915 E0.03147
G1 X116.494 Y118.413 E0.03096
G1 X115.665 Y117.849 E0.03143
G1 X114.876 Y117.238 E0.03129
G1 X114.592 Y116.988 E0.01185
G1 X117.038 Y118.415 E0.08878
G1 X118.942 Y115.118 E0.11939
G1 X118.090 Y114.519 E0.03264
G1 X117.502 Y114.063 E0.02331
G1 X116.947 Y113.574 E0.02320
G1 X116.425 Y113.052 E0.02314
G1 X115.937 Y112.498 E0.02317
G1 X115.487 Y111.918 E0.02303
G1 X114.876 Y110.987 E0.03489
G1 X114.355 Y110.004 E0.03489
G1 X114.063 Y109.330 E0.02302
G1 X113.813 Y108.635 E0.02317
G1 X113.607 Y107.925 E0.02317
G1 X113.446 Y107.204 E0.02317
G1 X113.330 Y106.474 E0.02317
G1 X113.209 Y105.188 E0.04051
G1 X109.401 Y105.188 E0.11938
G1 X109.415 Y108.045 E0.08958
G1 X109.242 Y106.986 E0.03364
G1 X109.188 Y106.499 E0.01535
G1 X109.125 Y105.499 E0.03143
G1 X109.125 Y104.501 E0.03128
G1 X109.188 Y103.505 E0.03128
G1 X109.313 Y102.515 E0.03128
G1 X109.414 Y101.984 E0.01696
G1 X109.401 Y104.812 E0.08867
G1 X113.209 Y104.812 E0.11938
G1 X113.330 Y103.526 E0.04051
G1 X113.446 Y102.796 E0.02317
G1 X113.607 Y102.075 E0.02317
G1 X113.813 Y101.365 E0.02317
G1 X114.063 Y100.670 E0.02317
G1 X114.355 Y99.997 E0.02300
G1 X114.876 Y99.013 E0.03492
G1 X115.487 Y98.082 E0.03489
G1 X115.937 Y97.502 E0.02303
G1 X116.425 Y96.948 E0.02317
G1 X116.948 Y96.425 E0.02317
G1 X117.502 Y95.937 E0.02317
G1 X118.090 Y95.481 E0.02331
G1 X118.942 Y94.882 E0.03264
G1 X117.038 Y91.585 E0.11939
G1 X114.563 Y93.029 E0.08983
G1 X114.873 Y92.765 E0.01275
G1 X115.665 Y92.151 E0.03143
G1 X116.490 Y91.590 E0.03128
G1 X117.349 Y91.082 E0.03128
G1 X118.238 Y90.629 E0.03128
G1 X119.153 Y90.233 E0.03128
G1 X119.826 Y89.991 E0.02242
G1 X117.415 Y91.367 E0.08704
G1 X117.879 Y91.537 F10800.000
G1 F1200.000
G1 X119.423 Y94.211 E0.09684
G1 X120.178 Y93.859 E0.02612
G1 X120.888 Y93.578 E0.02392
G1 X121.613 Y93.342 E0.02391
G1 X122.352 Y93.152 E0.02391
G1 X123.101 Y93.010 E0.02391
G1 X123.856 Y92.914 E0.02386
G1 X125.000 Y92.860 E0.03591
G1 X126.144 Y92.914 E0.03591
G1 X126.899 Y93.010 E0.02386
G1 X127.648 Y93.152 E0.02391
G1 X128.387 Y93.342 E0.02391
G1 X129.112 Y93.578 E0.02391
G1 X129.822 Y93.859 E0.02392
G1 X130.577 Y94.211 E0.02612
G1 X132.121 Y91.537 E0.09684
G1 X128.866 Y89.678 E0.11750
G1 X128.421 Y89.470 E0.01543
G1 X127.535 Y89.121 E0.02986
G1 X127.160 Y88.905 E0.01355
G1 X127.051 Y88.796 E0.00484
G1 X127.105 Y88.797 E0.00171
G1 X127.367 Y88.713 E0.00861
G1 X127.566 Y88.742 E0.00630
G1 X127.799 Y88.804 E0.00757
G1 X128.785 Y89.158 E0.03285
G1 X130.023 Y89.536 E0.04058
G1 X130.986 Y89.882 E0.03207
G1 X131.923 Y90.288 E0.03203
G1 X132.835 Y90.752 E0.03208
G1 X133.711 Y91.271 E0.03192
G1 X134.557 Y91.846 E0.03208
G1 X135.364 Y92.472 E0.03203
G1 X136.133 Y93.149 E0.03214
G1 X136.697 Y93.685 E0.02438
G1 X137.686 Y94.527 E0.04075
G1 X137.987 Y94.890 E0.01476
G1 X138.057 Y95.078 E0.00630
G1 X138.028 Y95.129 E0.00184
G1 X137.860 Y95.082 E0.00548
G1 X137.484 Y94.865 E0.01358
G1 X136.739 Y94.273 E0.02986
G1 X136.336 Y93.991 E0.01543
G1 X133.099 Y92.102 E0.11750
G1 X131.557 Y94.772 E0.09669
G1 X132.134 Y95.178 E0.02211
G1 X132.738 Y95.646 E0.02396
G1 X133.311 Y96.151 E0.02394
G1 X133.850 Y96.690 E0.02388
G1 X134.354 Y97.262 E0.02391
G1 X134.820 Y97.863 E0.02386
G1 X135.449 Y98.820 E0.03591
G1 X135.985 Y99.833 E0.03591
G1 X136.287 Y100.531 E0.02386
