; generated by PrusaSlicer 2.2.0+win64 on 2020-07-18 at 18:48:27 UTC

; 

; external perimeters extrusion width = 0.60mm
; perimeters extrusion width = 0.50mm
; infill extrusion width = 0.50mm
; solid infill extrusion width = 0.50mm
; top infill extrusion width = 0.45mm
; first layer extrusion width = 0.42mm

M73 P0 R62
M73 Q0 S62
M201 X1000 Y1000 Z200 E5000 ; sets maximum accelerations, mm/sec^2
M203 X200 Y200 Z12 E120 ; sets maximum feedrates, mm/sec
M204 P1250 R1250 T1250 ; sets acceleration (P, T) and retract acceleration (R), mm/sec^2
M205 X8.00 Y8.00 Z0.40 E4.50 ; sets the jerk limits, mm/sec
M205 S0 T0 ; sets the minimum extruding and travel feed rate, mm/sec
M107
M862.3 P "MK3S" ; printer model check
M862.1 P0.4 ; nozzle diameter check
M115 U3.9.0 ; tell printer latest fw version
G90 ; use absolute coordinates
M83 ; extruder relative mode
M104 S215 ; set extruder temp
M140 S70 ; set bed temp
M190 S70 ; wait for bed temp
M109 S215 ; wait for extruder temp
G28 W ; home all without mesh bed level
G80 ; mesh bed leveling
G1 Y-3.0 F1000.0 ; go outside print area
G92 E0.0
G1 X60.0 E9.0 F1000.0 ; intro line
M73 Q0 S62
M73 P0 R62
G1 X100.0 E12.5 F1000.0 ; intro line
G92 E0.0
M221 S95
G21 ; set units to millimeters
G90 ; use absolute coordinates
M83 ; use relative distances for extrusion
M900 K0.06 ; Filament gcode LA 1.5
M900 K30 ; Filament gcode LA 1.0
;BEFORE_LAYER_CHANGE
G92 E0.0
;0.2


G1 E-0.80000 F2100.00000
G1 Z0.600 F10800.000
;AFTER_LAYER_CHANGE
;0.2
G1 X108.223 Y86.630
G1 Z0.200
G1 E0.80000 F2100.00000
M204 S1000
G1 F1200.000
G1 X109.463 Y85.178 E0.05985
G1 X111.234 Y83.518 E0.07610
G1 X112.703 Y82.416 E0.05761
G1 X114.310 Y81.434 E0.05903
G1 X115.966 Y80.627 E0.05776
G1 X118.198 Y79.824 E0.07438
G1 X120.004 Y79.387 E0.05826
G1 X121.572 Y79.154 E0.04970
G1 X125.557 Y79.142 E0.12495
G1 X127.341 Y79.381 E0.05644
G1 X129.140 Y79.812 E0.05800
G1 X130.886 Y80.410 E0.05787
G1 X132.601 Y81.187 E0.05904
G1 X134.639 Y82.393 E0.07425
G1 X136.118 Y83.497 E0.05787
G1 X137.509 Y84.760 E0.05890
G1 X138.748 Y86.122 E0.05771
G1 X139.547 Y87.171 E0.04137
G1 X141.506 Y90.563 E0.12282
G1 X142.445 Y93.084 E0.08434
G1 X142.886 Y94.907 E0.05880
G1 X143.148 Y96.740 E0.05808
G1 X143.235 Y98.579 E0.05773
G1 X143.147 Y100.437 E0.05831
G1 X142.897 Y102.206 E0.05601
G1 X142.618 Y103.458 E0.04023
G1 X142.085 Y105.190 E0.05680
G1 X141.506 Y106.604 E0.04792
G1 X139.572 Y109.955 E0.12129
G1 X139.151 Y110.541 E0.02262
G1 X137.542 Y112.373 E0.07645
G1 X136.131 Y113.659 E0.05988
G1 X134.639 Y114.775 E0.05839
G1 X132.601 Y115.980 E0.07425
G1 X130.890 Y116.756 E0.05892
G1 X129.160 Y117.349 E0.05735
G1 X127.369 Y117.781 E0.05775
G1 X125.789 Y118.014 E0.05009
G1 X121.542 Y118.010 E0.13316
G1 X119.447 Y117.665 E0.06657
G1 X117.670 Y117.181 E0.05775
G1 X115.928 Y116.524 E0.05837
G1 X114.288 Y115.721 E0.05725
G1 X112.703 Y114.752 E0.05824
G1 X111.228 Y113.644 E0.05787
G1 X109.865 Y112.404 E0.05775
G1 X108.616 Y111.030 E0.05823
G1 X107.828 Y109.993 E0.04085
G1 X105.871 Y106.604 E0.12269
G1 X104.930 Y104.079 E0.08447
G1 X104.490 Y102.256 E0.05880
G1 X104.229 Y100.427 E0.05795
G1 X104.142 Y98.583 E0.05787
G1 X104.230 Y96.730 E0.05817
G1 X104.480 Y94.961 E0.05601
G1 X104.759 Y93.709 E0.04023
G1 X105.292 Y91.977 E0.05680
G1 X105.869 Y90.567 E0.04779
G1 X107.805 Y87.212 E0.12142
G1 X108.188 Y86.678 E0.02061
G1 X108.494 Y86.899 F10800.000
G1 F1200.000
G1 X109.734 Y85.441 E0.06001
G1 X111.473 Y83.810 E0.07476
G1 X112.914 Y82.728 E0.05650
G1 X114.486 Y81.767 E0.05776
G1 X116.597 Y80.774 E0.07316
G1 X118.312 Y80.183 E0.05686
G1 X120.079 Y79.757 E0.05699
G1 X121.606 Y79.530 E0.04840
G1 X125.556 Y79.520 E0.12387
G1 X127.278 Y79.753 E0.05446
G1 X129.070 Y80.185 E0.05782
G1 X131.267 Y80.976 E0.07321
G1 X132.894 Y81.769 E0.05676
G1 X134.461 Y82.727 E0.05757
G1 X135.905 Y83.811 E0.05663
G1 X137.244 Y85.029 E0.05675
G1 X138.459 Y86.364 E0.05659
G1 X139.227 Y87.371 E0.03971
G1 X141.172 Y90.739 E0.12195
G1 X142.085 Y93.195 E0.08215
G1 X142.517 Y94.980 E0.05760
G1 X142.773 Y96.775 E0.05684
G1 X142.858 Y98.579 E0.05662
G1 X142.772 Y100.403 E0.05726
G1 X142.525 Y102.141 E0.05504
G1 X142.253 Y103.362 E0.03923
G1 X141.730 Y105.062 E0.05577
G1 X141.173 Y106.427 E0.04624
G1 X139.249 Y109.760 E0.12066
G1 X138.853 Y110.310 E0.02125
G1 X137.272 Y112.110 E0.07514
G1 X135.892 Y113.367 E0.05850
G1 X134.434 Y114.458 E0.05710
G1 X132.425 Y115.647 E0.07321
G1 X130.748 Y116.406 E0.05772
G1 X129.054 Y116.987 E0.05614
G1 X127.294 Y117.411 E0.05675
G1 X125.756 Y117.639 E0.04876
G1 X121.577 Y117.635 E0.13102
G1 X119.525 Y117.296 E0.06522
G1 X117.782 Y116.821 E0.05664
G1 X116.078 Y116.178 E0.05710
G1 X114.469 Y115.391 E0.05617
G1 X112.913 Y114.438 E0.05721
G1 X111.469 Y113.354 E0.05663
G1 X110.133 Y112.138 E0.05663
G1 X108.908 Y110.791 E0.05707
G1 X108.148 Y109.793 E0.03935
G1 X106.205 Y106.428 E0.12183
G1 X105.291 Y103.969 E0.08227
G1 X104.860 Y102.187 E0.05748
G1 X104.604 Y100.392 E0.05684
G1 X104.519 Y98.584 E0.05676
G1 X104.605 Y96.764 E0.05712
G1 X104.852 Y95.026 E0.05504
G1 X105.124 Y93.805 E0.03923
G1 X105.645 Y92.109 E0.05565
G1 X106.203 Y90.743 E0.04624
G1 X108.128 Y87.407 E0.12078
G1 X108.459 Y86.947 E0.01775
G1 F8640.000
G1 X109.734 Y85.441 E-0.45574
G1 X110.695 Y84.539 E-0.30426
G1 E-0.04000 F2100.00000
G1 Z0.800 F10800.000
G1 X132.207 Y86.910
G1 Z0.200
G1 E0.80000 F2100.00000
G1 F1200.000
G1 X131.535 Y88.074 E0.04216
G1 X132.370 Y88.753 E0.03374
G1 X132.965 Y89.311 E0.02557
G1 X133.526 Y89.909 E0.02571
G1 X133.799 Y90.229 E0.01320
G1 X134.299 Y90.874 E0.02556
G1 X134.541 Y91.218 E0.01320
G1 X134.982 Y91.914 E0.02583
G1 X135.370 Y92.620 E0.02528
G1 X135.559 Y93.006 E0.01348
G1 X135.882 Y93.752 E0.02546
G1 X136.159 Y94.521 E0.02565
G1 X136.285 Y94.932 E0.01348
G1 X136.487 Y95.719 E0.02546
G1 X136.641 Y96.522 E0.02565
G1 X136.709 Y97.043 E0.01647
G1 X138.057 Y97.043 E0.04228
G1 X138.057 Y91.661 E0.16875
G1 X138.086 Y91.591 E0.00235
G1 X138.360 Y91.318 E0.01215
G1 X138.429 Y91.289 E0.00235
G1 X139.211 Y91.289 E0.02452
G1 X139.264 Y91.304 E0.00170
G1 X139.529 Y91.492 E0.01020
G1 X140.020 Y92.703 E0.04097
G1 X140.198 Y93.221 E0.01717
G1 X140.499 Y94.257 E0.03382
G1 X140.739 Y95.327 E0.03438
G1 X140.910 Y96.407 E0.03428
G1 X140.970 Y96.952 E0.01719
G1 X141.038 Y98.028 E0.03382
G1 X141.039 Y99.119 E0.03419
G1 X140.970 Y100.213 E0.03438
G1 X140.834 Y101.295 E0.03419
G1 X140.630 Y102.366 E0.03419
G1 X140.355 Y103.434 E0.03456
G1 X140.018 Y104.472 E0.03423
G1 X139.535 Y105.667 E0.04040
G1 X139.498 Y105.712 E0.00183
G1 X139.264 Y105.863 E0.00873
G1 X139.212 Y105.878 E0.00171
G1 X138.429 Y105.878 E0.02453
G1 X138.360 Y105.850 E0.00235
G1 X138.086 Y105.576 E0.01215
G1 X138.057 Y105.506 E0.00235
G1 X138.057 Y100.124 E0.16876
G1 X136.709 Y100.124 E0.04227
G1 X136.641 Y100.643 E0.01640
G1 X136.488 Y101.446 E0.02565
G1 X136.286 Y102.233 E0.02546
G1 X136.160 Y102.644 E0.01348
G1 X135.882 Y103.413 E0.02565
G1 X135.560 Y104.159 E0.02546
G1 X135.371 Y104.545 E0.01348
G1 X134.983 Y105.251 E0.02528
G1 X134.542 Y105.947 E0.02583
G1 X134.300 Y106.292 E0.01320
G1 X133.800 Y106.936 E0.02556
G1 X133.527 Y107.256 E0.01320
G1 X132.968 Y107.852 E0.02560
G1 X132.370 Y108.414 E0.02574
G1 X131.535 Y109.093 E0.03374
G1 X132.207 Y110.257 E0.04216
G1 X136.868 Y107.566 E0.16875
G1 X136.943 Y107.556 E0.00235
G1 X137.317 Y107.656 E0.01215
G1 X137.376 Y107.702 E0.00235
G1 X137.768 Y108.380 E0.02455
G1 X137.781 Y108.434 E0.00173
G1 X137.764 Y108.716 E0.00885
G1 X137.744 Y108.769 E0.00179
G1 X137.070 Y109.640 E0.03453
G1 X136.704 Y110.069 E0.01766
G1 X135.969 Y110.852 E0.03368
G1 X135.571 Y111.237 E0.01737
G1 X134.753 Y111.958 E0.03419
G1 X134.321 Y112.305 E0.01737
G1 X133.453 Y112.935 E0.03364
G1 X132.532 Y113.520 E0.03419
G1 X132.043 Y113.799 E0.01765
G1 X131.087 Y114.286 E0.03364
G1 X130.582 Y114.514 E0.01738
G1 X129.577 Y114.913 E0.03391
G1 X129.053 Y115.092 E0.01738
G1 X128.005 Y115.397 E0.03419
G1 X127.466 Y115.526 E0.01738
G1 X126.413 Y115.727 E0.03363
G1 X125.478 Y115.848 E0.02954
G1 X125.423 Y115.839 E0.00178
G1 X125.173 Y115.712 E0.00879
G1 X125.133 Y115.674 E0.00172
G1 X124.747 Y115.007 E0.02416
G1 X124.737 Y114.936 E0.00223
G1 X124.818 Y114.579 E0.01150
G1 X124.858 Y114.520 E0.00224
G1 X125.051 Y114.389 E0.00732
G1 X129.539 Y111.798 E0.16248
G1 X128.869 Y110.637 E0.04203
G1 X127.740 Y111.058 E0.03775
G1 X127.339 Y111.181 E0.01316
G1 X126.541 Y111.385 E0.02584
G1 X125.743 Y111.537 E0.02547
G1 X124.932 Y111.640 E0.02565
G1 X124.503 Y111.674 E0.01347
G1 X123.689 Y111.699 E0.02555
G1 X123.268 Y111.692 E0.01320
G1 X122.445 Y111.640 E0.02583
G1 X121.634 Y111.537 E0.02565
G1 X120.836 Y111.385 E0.02547
G1 X120.038 Y111.181 E0.02584
G1 X119.637 Y111.058 E0.01316
G1 X118.508 Y110.637 E0.03775
G1 X117.838 Y111.798 E0.04203
G1 X122.499 Y114.489 E0.16875
G1 X122.545 Y114.548 E0.00235
G1 X122.645 Y114.922 E0.01215
G1 X122.636 Y114.997 E0.00235
G1 X122.245 Y115.673 E0.02448
G1 X122.206 Y115.710 E0.00172
G1 X121.957 Y115.837 E0.00876
G1 X121.901 Y115.847 E0.00178
G1 X120.975 Y115.728 E0.02927
G1 X119.900 Y115.524 E0.03428
G1 X118.854 Y115.255 E0.03387
G1 X117.800 Y114.913 E0.03475
G1 X116.803 Y114.518 E0.03363
G1 X116.295 Y114.289 E0.01747
G1 X115.334 Y113.799 E0.03382
G1 X114.395 Y113.244 E0.03419
G1 X113.483 Y112.625 E0.03456
G1 X112.622 Y111.957 E0.03419
G1 X111.804 Y111.235 E0.03420
G1 X111.034 Y110.465 E0.03415
G1 X110.320 Y109.656 E0.03382
G1 X109.634 Y108.772 E0.03509
G1 X109.614 Y108.719 E0.00178
G1 X109.596 Y108.437 E0.00885
G1 X109.609 Y108.383 E0.00173
G1 X109.994 Y107.713 E0.02424
G1 X110.050 Y107.668 E0.00224
G1 X110.400 Y107.559 E0.01151
G1 X110.472 Y107.564 E0.00224
G1 X110.682 Y107.666 E0.00733
G1 X115.170 Y110.257 E0.16248
G1 X115.842 Y109.093 E0.04216
G1 X115.007 Y108.414 E0.03374
G1 X114.412 Y107.856 E0.02557
G1 X113.851 Y107.258 E0.02571
G1 X113.578 Y106.938 E0.01320
G1 X113.078 Y106.294 E0.02556
G1 X112.836 Y105.949 E0.01320
G1 X112.395 Y105.253 E0.02583
G1 X112.007 Y104.547 E0.02528
G1 X111.818 Y104.161 E0.01348
G1 X111.495 Y103.415 E0.02546
G1 X111.218 Y102.646 E0.02565
G1 X111.092 Y102.235 E0.01348
G1 X110.890 Y101.448 E0.02546
G1 X110.736 Y100.645 E0.02565
G1 X110.668 Y100.124 E0.01647
G1 X109.320 Y100.124 E0.04228
G1 X109.320 Y105.506 E0.16875
G1 X109.291 Y105.576 E0.00235
G1 X109.017 Y105.850 E0.01215
G1 X108.948 Y105.878 E0.00235
G1 X108.166 Y105.878 E0.02452
G1 X108.114 Y105.863 E0.00170
G1 X107.848 Y105.675 E0.01020
G1 X107.357 Y104.464 E0.04097
G1 X107.179 Y103.946 E0.01717
G1 X106.878 Y102.910 E0.03382
G1 X106.639 Y101.840 E0.03438
G1 X106.467 Y100.761 E0.03428
G1 X106.407 Y100.216 E0.01719
G1 X106.339 Y99.139 E0.03382
G1 X106.338 Y98.048 E0.03419
G1 X106.407 Y96.954 E0.03438
G1 X106.543 Y95.872 E0.03419
G1 X106.747 Y94.801 E0.03419
G1 X107.022 Y93.733 E0.03456
G1 X107.359 Y92.695 E0.03423
G1 X107.842 Y91.500 E0.04040
G1 X107.879 Y91.456 E0.00183
G1 X108.113 Y91.304 E0.00873
G1 X108.165 Y91.289 E0.00171
G1 X108.948 Y91.289 E0.02453
G1 X109.017 Y91.317 E0.00235
G1 X109.291 Y91.591 E0.01215
G1 X109.320 Y91.661 E0.00235
G1 X109.320 Y97.043 E0.16876
G1 X110.668 Y97.043 E0.04227
G1 X110.736 Y96.524 E0.01640
G1 X110.889 Y95.721 E0.02565
G1 X111.091 Y94.934 E0.02546
G1 X111.217 Y94.523 E0.01348
G1 X111.495 Y93.754 E0.02565
G1 X111.817 Y93.008 E0.02546
G1 X112.006 Y92.622 E0.01348
G1 X112.394 Y91.916 E0.02528
G1 X112.835 Y91.220 E0.02583
G1 X113.077 Y90.875 E0.01320
G1 X113.577 Y90.231 E0.02556
G1 X113.850 Y89.911 E0.01320
G1 X114.409 Y89.315 E0.02560
G1 X115.007 Y88.753 E0.02574
G1 X115.842 Y88.074 E0.03374
G1 X115.170 Y86.910 E0.04216
G1 X110.509 Y89.601 E0.16875
G1 X110.434 Y89.611 E0.00235
G1 X110.060 Y89.511 E0.01215
G1 X110.001 Y89.465 E0.00235
G1 X109.609 Y88.787 E0.02455
G1 X109.597 Y88.733 E0.00173
G1 X109.613 Y88.451 E0.00885
G1 X109.633 Y88.398 E0.00179
G1 X110.311 Y87.522 E0.03472
G1 X111.034 Y86.702 E0.03429
G1 X111.420 Y86.303 E0.01741
G1 X112.203 Y85.569 E0.03364
G1 X112.631 Y85.203 E0.01766
G1 X113.478 Y84.546 E0.03363
G1 X113.932 Y84.227 E0.01738
G1 X114.850 Y83.644 E0.03410
G1 X115.800 Y83.121 E0.03400
G1 X116.795 Y82.653 E0.03447
G1 X117.307 Y82.441 E0.01737
G1 X118.316 Y82.078 E0.03364
G1 X119.363 Y81.773 E0.03419
G1 X120.439 Y81.532 E0.03456
G1 X121.504 Y81.363 E0.03382
G1 X121.901 Y81.319 E0.01253
G1 X121.955 Y81.329 E0.00172
G1 X122.205 Y81.455 E0.00876
G1 X122.244 Y81.493 E0.00172
G1 X122.630 Y82.160 E0.02416
G1 X122.640 Y82.231 E0.00223
G1 X122.559 Y82.588 E0.01150
G1 X122.519 Y82.647 E0.00224
G1 X122.326 Y82.778 E0.00732
G1 X117.838 Y85.369 E0.16248
G1 X118.508 Y86.530 E0.04203
G1 X119.637 Y86.110 E0.03775
G1 X120.038 Y85.986 E0.01316
G1 X120.836 Y85.782 E0.02584
G1 X121.634 Y85.630 E0.02547
G1 X122.445 Y85.527 E0.02565
G1 X122.874 Y85.493 E0.01347
G1 X123.688 Y85.468 E0.02555
G1 X124.109 Y85.475 E0.01320
G1 X124.932 Y85.527 E0.02583
G1 X125.743 Y85.630 E0.02565
G1 X126.541 Y85.782 E0.02547
G1 X127.339 Y85.986 E0.02584
G1 X127.740 Y86.110 E0.01316
G1 X128.869 Y86.530 E0.03775
G1 X129.539 Y85.369 E0.04203
G1 X124.878 Y82.678 E0.16876
G1 X124.832 Y82.619 E0.00235
G1 X124.732 Y82.244 E0.01216
G1 X124.742 Y82.170 E0.00235
G1 X125.134 Y81.493 E0.02453
G1 X125.174 Y81.455 E0.00172
G1 X125.423 Y81.329 E0.00878
G1 X125.479 Y81.319 E0.00178
G1 X126.394 Y81.437 E0.02893
G1 X127.485 Y81.646 E0.03482
G1 X128.534 Y81.915 E0.03396
G1 X129.577 Y82.254 E0.03438
G1 X130.574 Y82.649 E0.03363
G1 X131.082 Y82.878 E0.01747
G1 X132.043 Y83.368 E0.03382
G1 X132.982 Y83.923 E0.03419
G1 X133.894 Y84.542 E0.03456
G1 X134.755 Y85.211 E0.03419
G1 X135.573 Y85.932 E0.03420
G1 X136.343 Y86.702 E0.03415
G1 X137.057 Y87.511 E0.03382
G1 X137.743 Y88.395 E0.03509
G1 X137.763 Y88.448 E0.00178
G1 X137.781 Y88.730 E0.00885
G1 X137.768 Y88.784 E0.00173
G1 X137.383 Y89.454 E0.02424
G1 X137.327 Y89.499 E0.00224
G1 X136.977 Y89.608 E0.01151
G1 X136.905 Y89.603 E0.00224
G1 X136.695 Y89.501 E0.00733
G1 X132.259 Y86.940 E0.16060
G1 F8640.000
G1 X131.535 Y88.074 E-0.31077
G1 X132.370 Y88.753 E-0.24849
G1 X132.965 Y89.311 E-0.18833
G1 X133.001 Y89.351 E-0.01241
G1 E-0.04000 F2100.00000
G1 Z0.800 F10800.000
G1 X117.323 Y85.231
G1 Z0.200
G1 E0.80000 F2100.00000
G1 F1200.000
G1 X118.352 Y87.014 E0.06452
G1 X119.001 Y86.739 E0.02210
G1 X119.751 Y86.469 E0.02498
G1 X120.136 Y86.350 E0.01264
G1 X120.913 Y86.151 E0.02514
G1 X121.699 Y86.001 E0.02509
G1 X122.488 Y85.902 E0.02495
G1 X122.890 Y85.870 E0.01264
G1 X123.687 Y85.845 E0.02500
G1 X124.090 Y85.851 E0.01264
G1 X124.890 Y85.902 E0.02514
G1 X125.678 Y86.001 E0.02491
G1 X126.464 Y86.151 E0.02509
G1 X127.241 Y86.350 E0.02514
G1 X127.626 Y86.469 E0.01264
G1 X128.376 Y86.739 E0.02498
G1 X129.025 Y87.014 E0.02210
G1 X130.054 Y85.231 E0.06452
G1 X125.166 Y82.410 E0.17695
G1 X125.126 Y82.259 E0.00490
G1 X125.418 Y81.754 E0.01829
G1 X125.516 Y81.704 E0.00345
G1 X126.343 Y81.811 E0.02614
G1 X127.394 Y82.012 E0.03355
G1 X128.423 Y82.276 E0.03331
G1 X129.444 Y82.607 E0.03363
G1 X130.431 Y82.998 E0.03331
G1 X130.915 Y83.217 E0.01664
G1 X131.867 Y83.701 E0.03350
G1 X132.785 Y84.244 E0.03345
G1 X133.667 Y84.844 E0.03345
G1 X134.510 Y85.497 E0.03345
G1 X135.311 Y86.203 E0.03345
G1 X136.064 Y86.956 E0.03340
G1 X136.770 Y87.756 E0.03345
G1 X137.392 Y88.558 E0.03182
G1 X137.399 Y88.669 E0.00350
G1 X137.111 Y89.172 E0.01817
G1 X136.970 Y89.215 E0.00463
G1 X132.069 Y86.395 E0.17728
G1 X131.042 Y88.174 E0.06441
G1 X131.807 Y88.767 E0.03036
G1 X132.114 Y89.029 E0.01264
G1 X132.694 Y89.574 E0.02495
G1 X133.242 Y90.158 E0.02511
G1 X133.504 Y90.464 E0.01264
G1 X133.993 Y91.094 E0.02500
G1 X134.225 Y91.424 E0.01264
G1 X134.654 Y92.101 E0.02514
G1 X135.037 Y92.798 E0.02495
G1 X135.215 Y93.160 E0.01264
G1 X135.533 Y93.896 E0.02514
G1 X135.803 Y94.645 E0.02495
G1 X135.921 Y95.030 E0.01264
G1 X136.121 Y95.807 E0.02514
G1 X136.270 Y96.587 E0.02492
G1 X136.378 Y97.420 E0.02633
G1 X138.434 Y97.420 E0.06449
G1 X138.434 Y91.776 E0.17695
G1 X138.545 Y91.666 E0.00490
G1 X139.129 Y91.666 E0.01830
G1 X139.222 Y91.726 E0.00348
G1 X139.665 Y92.829 E0.03726
G1 X139.837 Y93.331 E0.01663
G1 X140.135 Y94.356 E0.03349
G1 X140.369 Y95.403 E0.03363
G1 X140.536 Y96.452 E0.03331
